Apps/Android/app/src/main/assets/luts/DJI_Pocket4P_DLog2_Rec709_33.cube
TITLE "Generated by Resolve"
LUT_3D_SIZE 33
0.020325 0.0211337 0.0203861
0.020325 0.0211337 0.0203861
0.020325 0.0211337 0.0203861
0.0314031 0.0214694 0.0207065
0.0638437 0.0209201 0.021149
0.094316 0.019913 0.0216983
0.13225 0.0175784 0.0235904
0.176516 0.0141756 0.0268406
0.228443 0.0104524 0.0312963
0.289204 0.00779736 0.0375677
0.358709 0.00727855 0.0476539
0.436713 0.0055848 0.0599832
0.533471 0 0.0788128
0.717113 0 0.171283
0.839719 0 0.233585
0.859495 0 0.293431
0.865507 0.00170901 0.341527
0.868025 0.0252079 0.388052
0.870695 0.0433814 0.468711
0.875776 0.00311284 0.538766
0.86566 0 0.553735
0.753048 0 0.49453
0.586816 0.00419623 0.382635
0.390417 0.0303502 0.206989
0.177096 0.0181735 0.052079
0.0201267 0.0201267 0.0201267
0.0201267 0.0201267 0.0201267
0.0201267 0.0201267 0.0201267
0.0201267 0.0201267 0.0201267
0.0201267 0.0201267 0.0201267
0.0201267 0.0201267 0.0201267
0.0201267 0.0201267 0.0201267
0.0201267 0.0201267 0.0201267
0.020325 0.0211337 0.0203861
0.020325 0.0211337 0.0203861
0.020325 0.0211337 0.0203861
0.035172 0.0216373 0.0208438
0.0675669 0.020798 0.02121
0.0976577 0.0197299 0.0218509
0.135027 0.01738 0.023743
0.178683 0.0139925 0.0270237
0.230457 0.0103456 0.0314946
0.290822 0.00775158 0.0377966
0.360006 0.00730907 0.0478065
0.43772 0.00550851 0.0601511
0.542107 0 0.0835279
0.722377 0 0.176028
0.840681 0 0.236118
0.8598 0 0.295201
0.86566 0.00205997 0.343053
0.86804 0.0262913 0.389685
0.870832 0.0423438 0.470436
0.875761 0.00314336 0.538705
0.864027 0 0.552972
0.755047 0 0.496269
0.58616 0.00427253 0.382193
0.394522 0.0301823 0.210361
0.176883 0.0181582 0.051957
0.0201267 0.0201267 0.0201267
0.0201267 0.0201267 0.0201267
0.0201267 0.0201267 0.0201267
0.0201267 0.0201267 0.0201267
0.0201267 0.0201267 0.0201267
0.0201267 0.0201267 0.0201267
0.0201267 0.0201267 0.0201267
0.0201267 0.0201267 0.0201267
0.0203708 0.0215915 0.0204471
0.0204166 0.0219425 0.0204776
0.0203403 0.0213474 0.0204166
0.0390784 0.0216678 0.0209201
0.0714275 0.0206912 0.0213474
0.101244 0.0195163 0.0220188
0.138018 0.0171817 0.0239109
0.181094 0.0137942 0.0272068
0.232029 0.0102541 0.0316472
0.291997 0.00772107 0.0379644
0.361257 0.00733959 0.0479438
0.438697 0.00544747 0.0603189
0.550423 0 0.0881056
0.726848 0 0.17998
0.841505 0 0.238483
0.86009 0 0.296803
0.865766 0.00242618 0.34435
0.86804 0.0270695 0.390875
0.870954 0.0414282 0.471946
0.875792 0.00296025 0.539193
0.862028 0 0.551812
0.753277 0 0.495277
0.589456 0.00395209 0.385031
0.39086 0.0303502 0.207309
0.16466 0.0178683 0.0453193
0.0201267 0.0201267 0.0201267
0.0201267 0.0201267 0.0201267
0.0201267 0.0201267 0.0201267
0.0201267 0.0201267 0.0201267
0.0201267 0.0201267 0.0201267
0.0201267 0.0201267 0.0201267
0.0201267 0.0201267 0.0201267
0.0201267 0.0201267 0.0201267
0.0215763 0.0586557 0.0248569
0.0215763 0.0586862 0.0248569
0.0215915 0.0605936 0.0251316
0.0331731 0.0548562 0.0223392
0.0754406 0.0433661 0.0252842
0.0997177 0.0360723 0.0240177
0.130617 0.0229191 0.0224155
0.174777 0.0160067 0.0261234
0.227558 0.0118715 0.0307469
0.292775 0.00787366 0.0380102
0.362036 0.00735485 0.0480201
0.438956 0.00543221 0.0603494
0.56791 0.00015259 0.0986343
0.729992 0 0.182635
0.842344 0 0.240955
0.860365 0 0.298375
0.865904 0.00254826 0.345586
0.86804 0.0279393 0.392187
0.871061 0.0406653 0.473213
0.875837 0.00256352 0.540093
0.866804 0 0.556008
0.745892 0 0.49041
0.58822 0.00407416 0.384131
0.390402 0.0303807 0.206897
0.16875 0.0179751 0.0474556
0.0201267 0.0201267 0.0201267
0.0201267 0.0201267 0.0201267
0.0201267 0.0201267 0.0201267
0.0201267 0.0201267 0.0201267
0.0201267 0.0201267 0.0201267
0.0201267 0.0201267 0.0201267
0.0201267 0.0201267 0.0201267
0.0201267 0.0201267 0.0201267
0.021561 0.0983902 0.030518
0.0215915 0.0975357 0.0304112
0.0215763 0.100496 0.0296941
0.0284886 0.0954452 0.0217594
0.0598001 0.0944381 0.0231479
0.10248 0.0856184 0.0258488
0.158434 0.0636149 0.0293889
0.184985 0.0511788 0.0255894
0.223789 0.0270848 0.0248112
0.27805 0.0159152 0.0332341
0.347448 0.0133516 0.0436103
0.428443 0.00907912 0.0576028
0.578088 0.000411994 0.106493
0.733074 0 0.185183
0.843229 0 0.243595
0.860609 0 0.299855
0.866026 0.00276188 0.346838
0.868055 0.028809 0.393515
0.871168 0.0398566 0.474556
0.875883 0.00225834 0.540856
0.86154 0 0.552132
0.74519 0 0.49012
0.592081 0.00369268 0.387335
0.391287 0.0303502 0.20763
0.169909 0.0180056 0.0480964
0.0201267 0.0201267 0.0201267
0.0201267 0.0201267 0.0201267
0.0201267 0.0201267 0.0201267
0.0201267 0.0201267 0.0201267
0.0201267 0.0201267 0.0201267
0.0201267 0.0201267 0.0201267
0.0201267 0.0201267 0.0201267
0.0201267 0.0201267 0.0201267
0.0205997 0.137957 0.0366979
0.0206302 0.136385 0.0364233
0.0206607 0.138659 0.0299535
0.0238193 0.136767 0.0204776
0.0534676 0.133425 0.0228428
0.0876631 0.132876 0.0231174
0.147601 0.120729 0.0278782
0.218585 0.0909133 0.0360113
0.257176 0.068574 0.0314488
0.29424 0.0464485 0.0257572
0.350942 0.0251621 0.0381781
0.42475 0.0154116 0.054551
0.512764 0.00488289 0.0713817
0.719799 0 0.174258
0.844114 0 0.246326
0.860868 0 0.301366
0.866148 0.00302129 0.348104
0.868055 0.0296483 0.394812
0.871275 0.0390173 0.475929
0.875914 0.00205997 0.54136
0.858076 0 0.549706
0.758907 0 0.499916
0.591485 0.00375372 0.386938
0.390936 0.0303655 0.207324
0.178363 0.0181888 0.0527504
0.0201267 0.0201267 0.0201267
0.0201267 0.0201267 0.0201267
0.0201267 0.0201267 0.0201267
0.0201267 0.0201267 0.0201267
0.0201267 0.0201267 0.0201267
0.0201267 0.0201267 0.0201267
0.0201267 0.0201267 0.0201267
0.0201267 0.0201267 0.0201267
0.01944 0.186954 0.0463569
0.0194247 0.184665 0.0458381
0.0196384 0.184604 0.0293126
0.0214542 0.184192 0.020264
0.0367895 0.182025 0.0203098
0.0748302 0.182422 0.0226902
0.124697 0.180362 0.0229343
0.205219 0.166613 0.0309453
0.296101 0.131365 0.0482185
0.35227 0.0910201 0.0431525
0.390585 0.0673991 0.0401312
0.444694 0.0347601 0.0457313
0.50811 0.0128634 0.0674754
0.609262 9.15541e-05 0.090486
0.826627 0 0.220554
0.86128 0 0.303532
0.866316 0.0034638 0.349905
0.86807 0.0308537 0.396658
0.871443 0.0379034 0.477821
0.875929 0.00187686 0.541802
0.859342 0 0.551232
0.747784 0 0.492393
0.587793 0.0041352 0.384024
0.39321 0.0302739 0.209171
0.176638 0.0181582 0.0517891
0.0201267 0.0201267 0.0201267
0.0201267 0.0201267 0.0201267
0.0201267 0.0201267 0.0201267
0.0201267 0.0201267 0.0201267
0.0201267 0.0201267 0.0201267
0.0201267 0.0201267 0.0201267
0.0201267 0.0201267 0.0201267
0.0201267 0.0201267 0.0201267
0.0204929 0.248936 0.0618906
0.0203403 0.245945 0.0605173
0.0207675 0.244678 0.0339818
0.0216831 0.241901 0.0209201
0.0330816 0.242344 0.0206302
0.0563058 0.242832 0.022385
0.104509 0.243946 0.0242771
0.176654 0.240253 0.0249332
0.277165 0.227039 0.0353094
0.392798 0.186664 0.0674296
0.465293 0.132769 0.0638132
0.516625 0.108278 0.0612802
0.539086 0.0472267 0.0513771
0.594018 0.00607309 0.0822156
0.737423 0 0.118441
0.854246 0 0.269291
0.866529 0.00410468 0.352316
0.868086 0.0328069 0.399451
0.871672 0.036347 0.48043
0.876005 0.00132753 0.542855
0.858701 0 0.551476
0.748043 0 0.493126
0.590341 0.00389105 0.386267
0.38793 0.030518 0.204776
0.171405 0.0180362 0.0489052
0.0201267 0.0201267 0.0201267
0.0201267 0.0201267 0.0201267
0.0201267 0.0201267 0.0201267
0.0201267 0.0201267 0.0201267
0.0201267 0.0201267 0.0201267
0.0201267 0.0201267 0.0201267
0.0201267 0.0201267 0.0201267
0.0201267 0.0201267 0.0201267
0.0234379 0.310552 0.0960861
0.0242466 0.314626 0.0820172
0.0250706 0.313771 0.0581674
0.0252689 0.308125 0.0330968
0.028687 0.304494 0.024445
0.0406195 0.304448 0.0236362
0.0775464 0.310704 0.0267338
0.14667 0.321157 0.0308537
0.239841 0.312245 0.0316777
0.367544 0.305974 0.0448463
0.501976 0.269871 0.0981765
0.594034 0.204501 0.0992599
0.618143 0.16585 0.0892958
0.637186 0.0793927 0.0649882
0.686534 0.00224308 0.0915847
0.811353 0 0.135088
0.862913 0 0.3149
0.868116 0.0358587 0.403677
0.871992 0.0340887 0.48426
0.876081 0.000686656 0.543984
0.863645 0 0.556558
0.748943 0 0.494377
0.586038 0.00433356 0.382956
0.395758 0.0301823 0.211215
0.179706 0.0182193 0.0534676
0.0201267 0.0201267 0.0201267
0.0201267 0.0201267 0.0201267
0.0201267 0.0201267 0.0201267
0.0201267 0.0201267 0.0201267
0.0201267 0.0201267 0.0201267
0.0201267 0.0201267 0.0201267
0.0201267 0.0201267 0.0201267
0.0201267 0.0201267 0.0201267
0.0284886 0.385733 0.140185
0.0296788 0.3897 0.119646
0.0305943 0.391638 0.0978866
0.03093 0.388724 0.0735637
0.0321813 0.384237 0.0492103
0.0377356 0.381323 0.0359503
0.0548257 0.38172 0.0308385
0.10193 0.388663 0.0349889
0.194812 0.402502 0.0425727
0.309773 0.393286 0.0436408
0.472374 0.404852 0.0593729
0.615274 0.373739 0.128054
0.700343 0.294881 0.127687
0.720775 0.243641 0.123339
0.747082 0.135058 0.0876478
0.794568 0.00141909 0.0781109
0.826673 0 0.157961
0.867292 0.0120699 0.366537
0.872404 0.0311437 0.489189
0.876204 0 0.545846
0.856367 0 0.55201
0.752071 0 0.49749
0.579141 0.00469978 0.377127
0.389822 0.0304723 0.206241
0.182635 0.0182803 0.0550698
0.0201267 0.0201267 0.0201267
0.0201267 0.0201267 0.0201267
0.0201267 0.0201267 0.0201267
0.0201267 0.0201267 0.0201267
0.0201267 0.0201267 0.0201267
0.0201267 0.0201267 0.0201267
0.0201267 0.0201267 0.0201267
0.0201267 0.0201267 0.0201267
0.0359197 0.469368 0.187411
0.0365148 0.471839 0.168673
0.0371557 0.475898 0.148882
0.0377661 0.476371 0.127214
0.0385443 0.474372 0.103761
0.0400397 0.470924 0.0776379
0.0509194 0.467384 0.0531014
0.0771191 0.468009 0.0458076
0.137621 0.476692 0.0480659
0.257786 0.491005 0.0597086
0.395819 0.482994 0.0610208
0.568948 0.49839 0.075639
0.712551 0.47628 0.146517
0.79852 0.408957 0.154925
0.816693 0.354376 0.14583
0.852934 0.218891 0.11426
0.898375 0.0339208 0.0623941
0.837659 0 0.172519
0.868452 0.0474098 0.422156
0.876387 0 0.548516
0.855604 0 0.553429
0.746349 0 0.49485
0.592233 0.00373846 0.388769
0.385336 0.0307012 0.202441
0.159869 0.017731 0.04271
0.0201267 0.0201267 0.0201267
0.0201267 0.0201267 0.0201267
0.0201267 0.0201267 0.0201267
0.0201267 0.0201267 0.0201267
0.0201267 0.0201267 0.0201267
0.0201267 0.0201267 0.0201267
0.0201267 0.0201267 0.0201267
0.0201267 0.0201267 0.0201267
0.0486305 0.559136 0.249805
0.0491646 0.561151 0.232471
0.0503243 0.565286 0.215946
0.0509194 0.567468 0.198856
0.0513313 0.56759 0.178744
0.051606 0.56611 0.156649
0.0515908 0.563012 0.120363
0.0756542 0.561013 0.0812848
0.118135 0.561807 0.0734569
0.193561 0.569116 0.0730449
0.34107 0.58349 0.0817426
0.486717 0.575647 0.081239
0.659556 0.592096 0.0963607
0.793484 0.583246 0.135698
0.872099 0.526726 0.158221
0.887465 0.478828 0.153719
0.928374 0.339498 0.139544
0.934112 0.201846 0.102907
0.876295 0.00665293 0.229053
0.872145 0.0328985 0.486168
0.847715 0 0.549996
0.740703 0 0.49276
0.583719 0.00453193 0.382086
0.388388 0.0305943 0.204852
0.163317 0.0178073 0.0445258
0.0201267 0.0201267 0.0201267
0.0201267 0.0201267 0.0201267
0.0201267 0.0201267 0.0201267
0.0201267 0.0201267 0.0201267
0.0201267 0.0201267 0.0201267
0.0201267 0.0201267 0.0201267
0.0201267 0.0201267 0.0201267
0.0201267 0.0201267 0.0201267
0.0662394 0.647593 0.324193
0.0669718 0.6486 0.309911
0.0679026 0.651148 0.296223
0.0689555 0.654337 0.281483
0.0700542 0.655909 0.265568
0.070985 0.656443 0.247929
0.0721904 0.656092 0.220081
0.0756695 0.653437 0.171145
0.124361 0.653254 0.127275
0.192645 0.652094 0.124758
0.276295 0.656382 0.123232
0.437476 0.672633 0.107942
0.576471 0.665629 0.106584
0.747341 0.686839 0.127169
0.859525 0.690196 0.0885176
0.910872 0.652537 0.0951095
0.924361 0.603525 0.124971
0.944472 0.488823 0.142733
0.94609 0.383078 0.137011
0.914305 0.173724 0.318898
0.876478 0.000350958 0.549386
0.738933 0 0.494469
0.584558 0.00453193 0.383581
0.394064 0.0304112 0.2094
0.165942 0.0178683 0.0458686
0.0201267 0.0201267 0.0201267
0.0201267 0.0201267 0.0201267
0.0201267 0.0201267 0.0201267
0.0201267 0.0201267 0.0201267
0.0201267 0.0201267 0.0201267
0.0201267 0.0201267 0.0201267
0.0201267 0.0201267 0.0201267
0.0201267 0.0201267 0.0201267
0.0818036 0.728313 0.399268
0.0837873 0.728832 0.388434
0.0853285 0.730419 0.37734
0.0870069 0.732586 0.36701
0.0884108 0.734966 0.354574
0.0893263 0.736767 0.341283
0.0901961 0.737545 0.322896
0.0941634 0.737545 0.285908
0.124193 0.736034 0.232853
0.203738 0.735225 0.19324
0.294514 0.73051 0.204013
0.376059 0.732265 0.200198
0.532753 0.756344 0.142046
0.666285 0.755611 0.14136
0.828336 0.786557 0.160266
0.918868 0.79118 0.0691081
0.919921 0.748012 0.0326848
0.914534 0.708278 0.0461585
0.924498 0.616297 0.121233
0.932937 0.537667 0.168994
0.92517 0.344289 0.421347
0.881178 0 0.609995
0.573953 0.00509651 0.375372
0.394247 0.0304875 0.209308
0.167422 0.0179141 0.0466011
0.0201267 0.0201267 0.0201267
0.0201267 0.0201267 0.0201267
0.0201267 0.0201267 0.0201267
0.0201267 0.0201267 0.0201267
0.0201267 0.0201267 0.0201267
0.0201267 0.0201267 0.0201267
0.0201267 0.0201267 0.0201267
0.0201267 0.0201267 0.0201267
0.0821393 0.800595 0.465217
0.0850233 0.800458 0.45771
0.0875715 0.800855 0.449866
0.0906081 0.801419 0.442451
0.0939498 0.802167 0.435233
0.0961776 0.80354 0.426352
0.0974746 0.806058 0.41178
0.111269 0.805966 0.390173
0.134127 0.805524 0.347707
0.211276 0.805615 0.314855
0.317845 0.803128 0.291371
0.411368 0.797375 0.307713
0.481071 0.7991 0.302007
0.624949 0.828824 0.201846
0.755581 0.843427 0.184771
0.896208 0.884718 0.18587
0.94963 0.863874 0.160678
0.940459 0.819944 0.0907454
0.930159 0.783505 0.0498817
0.915312 0.714244 0.0653239
0.925582 0.634897 0.241016
0.926375 0.486488 0.516686
0.901091 0.116182 0.71516
0.389914 0.030869 0.205173
0.161105 0.017731 0.0432136
0.0201267 0.0201267 0.0201267
0.0201267 0.0201267 0.0201267
0.0201267 0.0201267 0.0201267
0.0201267 0.0201267 0.0201267
0.0201267 0.0201267 0.0201267
0.0201267 0.0201267 0.0201267
0.0201267 0.0201267 0.0201267
0.0201267 0.0201267 0.0201267
0.0541543 0.862547 0.521385
0.0575265 0.862196 0.515969
0.0633707 0.861433 0.509682
0.0703441 0.860777 0.503639
0.0778515 0.860197 0.497734
0.0855879 0.859678 0.491722
0.0958572 0.859205 0.483375
0.114061 0.859876 0.467521
0.153719 0.859159 0.449531
0.223011 0.858946 0.425223
0.330907 0.859785 0.412909
0.448554 0.85774 0.410391
0.526177 0.853346 0.424582
0.583642 0.854932 0.420005
0.709285 0.885603 0.288823
0.831296 0.912459 0.239216
0.933928 0.937957 0.239216
0.958068 0.91809 0.226459
0.955077 0.882353 0.2009
0.947646 0.851087 0.140642
0.931685 0.773907 0.210101
0.924544 0.718883 0.34078
0.926665 0.601373 0.607492
0.915221 0.330083 0.804364
0.171252 0.0179751 0.0484627
0.0201267 0.0201267 0.0201267
0.0201267 0.0201267 0.0201267
0.0201267 0.0201267 0.0201267
0.0201267 0.0201267 0.0201267
0.0201267 0.0201267 0.0201267
0.0201267 0.0201267 0.0201267
0.0201267 0.0201267 0.0201267
0.0201267 0.0201267 0.0201267
0.0471809 0.907835 0.570352
0.0508431 0.907805 0.566354
0.0565652 0.907301 0.561715
0.0620584 0.906935 0.557397
0.0715496 0.906386 0.553597
0.0840467 0.90576 0.550179
0.101747 0.904845 0.545769
0.133593 0.902724 0.540108
0.174655 0.900984 0.528847
0.243824 0.89868 0.518654
0.356909 0.899916 0.51841
0.467872 0.901473 0.520317
0.569635 0.899992 0.525979
0.630549 0.897124 0.537346
0.676753 0.898955 0.533867
0.783169 0.926375 0.397818
0.887053 0.957488 0.313558
0.960708 0.971527 0.3149
0.964553 0.961257 0.286046
0.967636 0.926772 0.331289
0.961364 0.902296 0.267353
0.955489 0.823514 0.373571
0.943969 0.781994 0.467048
0.934676 0.694682 0.692226
0.926863 0.498924 0.85507
0.0201267 0.0201267 0.0201267
0.0201267 0.0201267 0.0201267
0.0201267 0.0201267 0.0201267
0.0201267 0.0201267 0.0201267
0.0201267 0.0201267 0.0201267
0.0201267 0.0201267 0.0201267
0.0201267 0.0201267 0.0201267
0.0201267 0.0201267 0.0201267
0.0853895 0.940673 0.62414
0.0913863 0.940398 0.621958
0.0996567 0.93959 0.619181
0.107973 0.938796 0.616464
0.118639 0.937728 0.61384
0.130541 0.936584 0.611246
0.153201 0.935134 0.609705
0.186236 0.933074 0.607538
0.231617 0.930358 0.604562
0.292042 0.928237 0.59968
0.388449 0.927413 0.601907
0.497398 0.929885 0.611948
0.591577 0.932631 0.620264
0.672114 0.932509 0.62652
0.723064 0.930739 0.636561
0.759747 0.932738 0.634424
0.846662 0.955261 0.504753
0.923537 0.978866 0.397803
0.971237 0.982101 0.347463
0.971038 0.982071 0.344961
0.976959 0.95906 0.446159
0.972946 0.939101 0.387121
0.977356 0.867216 0.518166
0.967971 0.834592 0.586557
0.945724 0.775219 0.768765
0.93875 0.624323 0.894133
0.0201267 0.0201267 0.0201267
0.0201267 0.0201267 0.0201267
0.0201267 0.0201267 0.0201267
0.0201267 0.0201267 0.0201267
0.0201267 0.0201267 0.0201267
0.0201267 0.0201267 0.0201267
0.0201267 0.0201267 0.0201267
0.148013 0.959396 0.676646
0.158831 0.958495 0.675105
0.171923 0.957321 0.673548
0.184619 0.956176 0.672114
0.197269 0.955047 0.67071
0.211109 0.953811 0.6692
0.229755 0.952163 0.667185
0.256275 0.950484 0.665904
0.296544 0.949172 0.666926
0.354131 0.947799 0.669444
0.429343 0.948013 0.675288
0.530709 0.949004 0.68545
0.615946 0.9523 0.69865
0.694499 0.955413 0.70837
0.762036 0.955566 0.714733
0.802823 0.954757 0.722408
0.832517 0.956924 0.720012
0.891554 0.971252 0.588785
0.947295 0.981109 0.439109
0.971084 0.982116 0.345327
0.974533 0.981918 0.393668
0.98381 0.975052 0.555901
0.981231 0.964645 0.508019
0.988098 0.907759 0.630915
0.98143 0.881941 0.684901
0.95671 0.843076 0.835523
0.949187 0.723461 0.925536
0.0201267 0.0201267 0.0201267
0.0201267 0.0201267 0.0201267
0.0201267 0.0201267 0.0201267
0.0201267 0.0201267 0.0201267
0.0201267 0.0201267 0.0201267
0.0201267 0.0201267 0.0201267
0.301015 0.965423 0.736934
0.312337 0.964752 0.736477
0.323125 0.964126 0.736065
0.333577 0.963516 0.735729
0.343404 0.962936 0.735409
0.354238 0.96231 0.735103
0.368612 0.961471 0.734676
0.388861 0.960433 0.734447
0.418677 0.959548 0.735592
0.455238 0.959381 0.739132
0.507652 0.95935 0.744793
0.574243 0.959823 0.752667
0.645319 0.961624 0.761105
0.71603 0.965087 0.773846
0.779858 0.969009 0.782879
0.835004 0.970733 0.789334
0.866407 0.971206 0.796262
0.887907 0.973342 0.793927
0.921553 0.978744 0.649897
0.964431 0.981979 0.475273
0.970916 0.982132 0.343175
0.975296 0.982193 0.409796
0.988434 0.983291 0.644694
0.985916 0.978851 0.600336
0.989624 0.941726 0.719829
0.987762 0.921035 0.766201
0.967178 0.895064 0.888243
0.958801 0.803571 0.949203
0.0201267 0.0201267 0.0201267
0.0201267 0.0201267 0.0201267
0.0201267 0.0201267 0.0201267
0.0201267 0.0201267 0.0201267
0.0201267 0.0201267 0.0201267
0.514046 0.965362 0.808698
0.520317 0.965408 0.809064
0.52575 0.965454 0.809415
0.530465 0.965545 0.809812
0.535378 0.965652 0.810239
0.54049 0.965743 0.810697
0.547295 0.965881 0.811307
0.556878 0.966064 0.812177
0.571115 0.966354 0.813519
0.590845 0.966751 0.815442
0.620356 0.967437 0.818875
0.6607 0.968627 0.824399
0.700298 0.969909 0.829114
0.750011 0.971283 0.835233
0.802472 0.973861 0.84239
0.847837 0.976867 0.84564
0.889265 0.977951 0.850004
0.911086 0.979843 0.85452
0.925841 0.98143 0.852216
0.946441 0.984436 0.713085
0.976318 0.982757 0.509392
0.970825 0.982147 0.342092
0.976364 0.983093 0.435218
0.992248 0.987686 0.728054
0.99057 0.985336 0.687068
0.991257 0.964553 0.796277
0.989899 0.950027 0.83444
0.976059 0.933257 0.92874
0.968795 0.872465 0.965011
0.0201267 0.0201267 0.0201267
0.0201267 0.0201267 0.0201267
0.0201267 0.0201267 0.0201267
0.0201267 0.0201267 0.0201267
0.690684 0.973022 0.877668
0.693263 0.973159 0.877897
0.69604 0.973312 0.878157
0.698085 0.973404 0.87834
0.700694 0.97351 0.878599
0.702831 0.973602 0.878798
0.706157 0.973739 0.879118
0.710918 0.973953 0.879591
0.717739 0.974243 0.880278
0.726284 0.974655 0.881132
0.73785 0.975219 0.882322
0.754345 0.976043 0.884108
0.777722 0.977218 0.886809
0.80798 0.978347 0.890898
0.841093 0.979187 0.895827
0.87657 0.980941 0.900359
0.904204 0.983169 0.901091
0.928115 0.983902 0.898909
0.941878 0.985565 0.900282
0.951324 0.986618 0.89781
0.96643 0.989197 0.812634
0.986664 0.984726 0.636576
0.97081 0.982147 0.341787
0.975616 0.983719 0.432334
0.994858 0.990646 0.805447
0.993271 0.988754 0.756497
0.993561 0.979797 0.856931
0.992081 0.969436 0.887541
0.983169 0.957275 0.956695
0.978332 0.924819 0.975708
0.0201267 0.0201267 0.0201267
0.0201267 0.0201267 0.0201267
0.0201267 0.0201267 0.0201267
0.813336 0.980804 0.924987
0.814435 0.980865 0.925078
0.815473 0.980941 0.92517
0.816541 0.981003 0.925277
0.817411 0.981048 0.925368
0.818418 0.981109 0.925475
0.819776 0.981186 0.925597
0.821729 0.981277 0.925795
0.824445 0.98143 0.926085
0.828473 0.981643 0.926513
0.834333 0.981949 0.927153
0.842741 0.982406 0.928115
0.854536 0.983047 0.929503
0.868269 0.983841 0.931228
0.885893 0.984634 0.933822
0.907073 0.985412 0.937148
0.926787 0.986801 0.939834
0.942245 0.988403 0.940124
0.95613 0.989151 0.938354
0.963149 0.990021 0.93608
0.968582 0.990677 0.932937
0.979049 0.99263 0.883879
0.994202 0.990494 0.80322
0.976425 0.982422 0.428687
0.991974 0.988083 0.729534
0.996643 0.99324 0.8701
0.995468 0.991409 0.825742
0.995941 0.989075 0.901625
0.994324 0.980377 0.92784
0.987884 0.970428 0.971649
0.98378 0.950149 0.982391
0.0201267 0.0201267 0.0201267
0.0201267 0.0201267 0.0201267
0.896391 0.986954 0.95639
0.896803 0.986999 0.956436
0.897078 0.987015 0.956466
0.897429 0.98706 0.956497
0.897871 0.987091 0.956542
0.898207 0.987106 0.956573
0.898665 0.987137 0.956634
0.899397 0.987182 0.95671
0.900465 0.987259 0.956817
0.901884 0.98735 0.95697
0.904021 0.987503 0.957214
0.907027 0.987701 0.957549
0.911482 0.988006 0.958068
0.917723 0.988418 0.958846
0.926741 0.989044 0.959991
0.936172 0.98967 0.961593
0.947936 0.990402 0.963684
0.958206 0.99144 0.965194
0.966461 0.992554 0.965347
0.973083 0.993103 0.963897
0.977234 0.993622 0.962631
0.980529 0.994018 0.960403
0.987106 0.995315 0.933455
0.997055 0.994339 0.894804
0.996216 0.992325 0.849882
0.997742 0.995544 0.91928
0.997772 0.995636 0.921019
0.996902 0.993835 0.88394
0.997604 0.994171 0.937804
0.995621 0.985321 0.955688
0.991272 0.979294 0.981277
0.98732 0.963516 0.986603
0.0201267 0.0201267 0.0201267
0.945022 0.991806 0.97464
0.94519 0.991821 0.974655
0.945357 0.991852 0.974685
0.945495 0.991867 0.974701
0.945708 0.991882 0.974731
0.945907 0.991913 0.974762
0.94612 0.991928 0.974792
0.946426 0.991943 0.974823
0.946883 0.991974 0.974899
0.947601 0.992035 0.97499
0.948379 0.992096 0.975113
0.949462 0.992172 0.975296
0.951034 0.992309 0.97557
0.953323 0.992493 0.975998
0.956573 0.992767 0.976593
0.961196 0.993149 0.977478
0.966201 0.993637 0.978515
0.971557 0.994217 0.979675
0.976761 0.994934 0.980529
0.98117 0.995621 0.980468
0.984466 0.995987 0.979507
0.986633 0.996292 0.978714
0.988327 0.99649 0.977203
0.992584 0.997299 0.963287
0.998398 0.996887 0.945174
0.998413 0.996902 0.945296
0.999146 0.99823 0.966766
0.998795 0.997604 0.957305
0.998123 0.996323 0.934157
0.998459 0.996033 0.962753
0.996368 0.989456 0.971359
0.993667 0.985046 0.987289
0.989944 0.972244 0.989471
0.972717 0.995514 0.986633
0.972808 0.995529 0.986648
0.972854 0.995544 0.986664
0.972885 0.995544 0.986664
0.972961 0.99556 0.986679
0.973022 0.99556 0.986694
0.973068 0.995575 0.986694
0.973175 0.99559 0.986709
0.973297 0.995605 0.98674
0.97348 0.995636 0.98677
0.97377 0.995651 0.986831
0.974182 0.995697 0.986908
0.974716 0.995743 0.987015
0.97554 0.995834 0.987182
0.97673 0.995941 0.987427
0.978408 0.996109 0.987778
0.980758 0.996338 0.988266
0.98294 0.996628 0.9888
0.985534 0.997009 0.989364
0.987869 0.997436 0.989746
0.989883 0.997818 0.989715
0.991562 0.998001 0.98912
0.99263 0.998123 0.988479
0.993606 0.998245 0.987564
0.996353 0.998764 0.980102
0.999329 0.998505 0.970916
0.999512 0.99881 0.975402
0.999939 0.999496 0.984802
0.999756 0.999222 0.980972
0.999435 0.998703 0.973663
0.999237 0.997772 0.977371
0.99736 0.992691 0.981872
0.995422 0.989013 0.991455
0.987839 0.998062 0.994064
0.987854 0.998062 0.994064
0.987884 0.998062 0.994079
0.987884 0.998062 0.994079
0.987915 0.998077 0.994079
0.987915 0.998077 0.994079
0.98793 0.998077 0.994095
0.987961 0.998077 0.994095
0.988022 0.998093 0.99411
0.988083 0.998108 0.994125
0.988174 0.998123 0.994141
0.988312 0.998154 0.994171
0.988525 0.998184 0.994232
0.98883 0.99823 0.994308
0.989242 0.998291 0.994415
