Apps/Android/app/src/main/assets/luts/DJI_Official_Pocket4P_DLog2_Rec709_33.cube
# DaVinci Resolve Cube (3D LUT).
#
#Generated by LUT Editor.
#Not-Clipped.
#
LUT_3D_SIZE 9
0 0 0
0.0365759 0.00334173 0.0116426
0.183474 0.00808728 0.0390631
0.559106 0.0212406 0.0953231
0.945953 0.0352941 0.165713
0.999908 0.424704 0.364111
1 0.733669 0.677897
1 0.971954 0.964248
1 0.99884 0.998505
0.00251774 0.0446632 0.0246738
0.0733196 0.0843214 0.00503548
0.243336 0.0969863 0.00604257
0.563943 0.0255131 0.0589303
0.925017 0.0235599 0.150607
1 0.395926 0.338781
1 0.691737 0.630304
1 0.9552 0.943282
1 0.99884 0.998505
0.00468452 0.184451 0.0854963
0.0403754 0.239994 0.0502937
0.292805 0.314488 0.00610361
0.634226 0.253803 0.0175021
0.961028 0.039765 0.130358
0.999863 0.405493 0.34461
0.999985 0.694759 0.633417
1 0.95581 0.94403
1 0.99884 0.998505
0.00839246 0.496208 0.208804
0.00062562 0.513207 0.203983
0.0799878 0.572244 0.10103
0.577173 0.610101 0.0166629
0.990387 0.432395 0.125521
0.999741 0.443595 0.369985
1 0.715251 0.655589
1 0.961929 0.951614
1 0.99884 0.998505
0.000122072 0.838026 0.316701
0.000289921 0.833494 0.319112
0 0.852079 0.323644
0.0964828 0.905974 0.154253
0.818814 0.869551 0.00231937
1 0.665156 0.497917
1 0.758434 0.702022
1 0.970108 0.961791
1 0.998856 0.998505
0.613993 1 0.625376
0.594385 1 0.611978
0.617945 1 0.630121
0.663218 1 0.66743
0.785489 1 0.740047
0.960571 0.984955 0.613031
1 0.88455 0.812467
1 0.97818 0.971786
1 0.998871 0.998535
0.873549 1 0.85893
0.870314 1 0.855573
0.872999 1 0.858228
0.877989 1 0.86302
0.885756 0.999969 0.869459
0.921843 0.999985 0.895125
0.989441 0.998917 0.928649
1 0.990478 0.98323
1 0.998947 0.998611
0.983902 1 0.980514
0.982361 1 0.978683
0.98349 1 0.980011
0.985183 1 0.982025
0.986557 1 0.983673
0.988403 1 0.985794
0.99382 1 0.991363
0.999176 0.999954 0.99527
1 0.999817 0.999695
0.999496 1 0.999374
0.999481 1 0.999359
0.999496 1 0.999374
0.999512 1 0.99939
0.999512 1 0.999405
0.999527 1 0.999405
0.999542 1 0.999435
0.999664 1 0.999496
0.999954 1 0.99968
0.00115969 0.00161746 0.019791
0.0568704 0.00697337 0.0489509
0.220111 0.0135042 0.112718
0.573129 0.0220188 0.17467
0.949996 0.0362249 0.191196
0.999908 0.423789 0.366613
1 0.729717 0.673808
1 0.970581 0.962524
1 0.99884 0.998505
0.00207523 0.0592355 0.0557717
0.10161 0.10161 0.10161
0.311666 0.0491493 0.113283
0.582666 0.0271 0.155123
0.929122 0.0340887 0.17612
0.999969 0.3953 0.341802
1 0.688411 0.627054
1 0.953307 0.940948
1 0.99881 0.998459
0.00590524 0.211414 0.135256
0.016434 0.280964 0.140002
0.297948 0.316579 0.0654307
0.667323 0.222583 0.0562753
0.96231 0.0599222 0.158465
0.999863 0.40473 0.347143
0.999985 0.691569 0.630274
1 0.954009 0.941802
1 0.99881 0.998459
0.00709545 0.508705 0.234211
0.00164797 0.527199 0.234043
0.0626688 0.584619 0.12958
0.579248 0.608194 0.046067
0.994675 0.419028 0.149264
0.999756 0.442649 0.370733
1 0.71191 0.652094
1 0.960494 0.949844
1 0.99884 0.998505
0.000457771 0.838071 0.325078
0.000747692 0.832563 0.327031
0 0.85095 0.329335
0.0876326 0.906355 0.161715
0.817884 0.867048 0.014313
1 0.658518 0.497948
1 0.759091 0.702968
1 0.969863 0.961486
1 0.99884 0.998505
0.608499 1 0.62237
0.584497 1 0.606531
0.606928 1 0.623575
0.659113 1 0.6645
0.781918 1 0.737102
0.959854 0.98471 0.60676
1 0.88278 0.811887
1 0.979934 0.974044
1 0.998871 0.998535
0.872312 1 0.857725
0.868894 1 0.8542
0.871366 1 0.856611
0.876188 1 0.861204
0.884642 0.999969 0.868345
0.920867 0.999985 0.894057
0.989273 0.998886 0.927245
1 0.990402 0.983261
1 0.998947 0.998611
0.983322 1 0.979812
0.981689 1 0.97789
0.982712 1 0.97908
0.984298 1 0.980972
0.986236 1 0.983291
0.988067 1 0.985382
0.993637 1 0.991104
0.999115 0.999939 0.99501
1 0.999802 0.99968
0.999496 1 0.999374
0.999466 1 0.999344
0.999481 1 0.999359
0.999496 1 0.99939
0.999512 1 0.999405
0.999527 1 0.999405
0.999542 1 0.999435
0.999664 1 0.999496
0.999954 1 0.99968
0.00222782 0.0375372 0.100237
0.0931258 0.00642405 0.186572
0.29546 0.0194095 0.253559
0.61088 0.0277256 0.313375
0.966125 0.0582895 0.294469
0.999832 0.428458 0.379263
0.999985 0.729198 0.674144
1 0.969985 0.961807
1 0.99884 0.998505
0.00285344 0.0838178 0.142565
0.0879988 0.0539712 0.248127
0.318502 0.0311589 0.277165
0.603006 0.0311589 0.303029
0.94287 0.0492256 0.276219
0.999908 0.398978 0.353506
1 0.687633 0.627222
1 0.952911 0.94049
1 0.998795 0.998444
0.00480659 0.257725 0.245426
0.00694286 0.28838 0.277455
0.298741 0.298741 0.298741
0.690608 0.193454 0.305806
0.973434 0.0941939 0.264546
0.999832 0.408927 0.358206
0.999985 0.692638 0.632456
1 0.954299 0.942214
1 0.998825 0.998474
0.00799573 0.533043 0.338811
0.00611887 0.547417 0.343633
0.0586709 0.5906 0.317021
0.581323 0.599313 0.281346
0.996292 0.434363 0.228611
0.999771 0.445594 0.379095
1 0.714229 0.655589
1 0.961196 0.950759
1 0.99884 0.998505
0.000808728 0.843534 0.366537
0.00123598 0.83949 0.365316
0 0.854841 0.366705
0.0661173 0.91458 0.197833
0.820172 0.867933 0.0731212
1 0.658869 0.507469
1 0.757671 0.701854
1 0.969833 0.961471
1 0.99884 0.998505
0.613443 1 0.628504
0.591714 1 0.614359
0.607752 1 0.626719
0.664683 1 0.669551
0.786725 1 0.743526
0.960327 0.984771 0.612757
1 0.882704 0.814679
1 0.981094 0.975555
1 0.998871 0.998535
0.873121 1 0.858686
0.869734 1 0.855192
0.871458 1 0.856855
0.876112 1 0.86125
0.885634 0.999969 0.86949
0.921691 0.999985 0.895384
0.98941 0.998901 0.928145
1 0.990417 0.983505
1 0.998932 0.998611
0.983597 1 0.980148
0.981979 1 0.978225
0.982742 1 0.979126
0.984176 1 0.980835
0.986114 1 0.983139
0.98822 1 0.98558
0.993744 1 0.991272
0.99913 0.999954 0.995102
1 0.999802 0.99968
0.999496 1 0.999374
0.999481 1 0.999344
0.999481 1 0.999359
0.999496 1 0.99939
0.999512 1 0.999405
0.999527 1 0.999405
0.999542 1 0.99942
0.999664 1 0.999496
0.999954 1 0.99968
0.00520333 0.181399 0.391089
0.0306249 0.119036 0.518151
0.309514 0.0602426 0.596857
0.654032 0.0233921 0.564263
0.978912 0.093492 0.5028
0.999802 0.457832 0.47129
0.999985 0.729671 0.67895
1 0.969268 0.961028
1 0.99884 0.998505
0.00543221 0.189502 0.398733
0.0234226 0.134051 0.495277
0.289937 0.0636606 0.567178
0.621378 0.0332494 0.535836
0.953719 0.0567941 0.48278
0.999878 0.426398 0.445853
1 0.687724 0.632227
1 0.952102 0.939666
1 0.998779 0.998413
0.00572213 0.267491 0.452369
0.00399786 0.25977 0.488457
0.26305 0.22446 0.598245
0.658412 0.126726 0.571237
0.973724 0.104875 0.490227
0.999802 0.433478 0.447089
1 0.691112 0.635233
1 0.95317 0.940963
1 0.998795 0.998444
0.00645457 0.559289 0.533852
0.00679026 0.558145 0.532769
0.0879988 0.576989 0.554131
0.565133 0.565133 0.565133
0.976333 0.459403 0.531151
0.999817 0.469718 0.456428
1 0.714488 0.659449
1 0.961318 0.951034
1 0.99884 0.998505
0.0144808 0.848356 0.531365
0.0209201 0.844587 0.527687
0.0369421 0.856825 0.530724
0.238239 0.884291 0.508766
0.820935 0.847456 0.513771
1 0.667231 0.537896
1 0.757671 0.703914
1 0.970321 0.962173
1 0.99884 0.998505
0.627527 1 0.659922
0.60618 1 0.647593
0.623178 1 0.657694
0.665095 1 0.682963
0.794583 1 0.7505
0.962509 0.982055 0.626886
1 0.887297 0.824811
1 0.980148 0.97435
1 0.998871 0.998535
0.875074 1 0.861219
0.871717 1 0.857771
0.873472 1 0.859464
0.876371 1 0.862104
0.887724 0.999969 0.872114
0.923476 0.999985 0.898375
0.989654 0.998886 0.92932
1 0.991119 0.984894
1 0.998932 0.998611
0.983993 1 0.980636
0.982391 1 0.978744
0.983063 1 0.979522
0.984024 1 0.980667
0.986099 1 0.983139
0.9888 1 0.986297
0.993942 1 0.991562
0.999176 0.999954 0.9953
1 0.999802 0.99968
0.999496 1 0.999374
0.999481 1 0.999359
0.999496 1 0.999359
0.999496 1 0.999374
0.999512 1 0.999405
0.999527 1 0.999405
0.999542 1 0.999435
0.999664 1 0.999496
0.999954 1 0.99968
0.00756847 0.340734 0.724361
0.00840772 0.340398 0.744121
0.0317998 0.303838 0.86566
0.502098 0.301503 0.915282
0.949981 0.0560311 0.820661
0.999863 0.488136 0.633799
1 0.745693 0.73228
1 0.968078 0.959991
1 0.99884 0.998505
0.00733959 0.336996 0.716442
0.00791943 0.32932 0.721706
0.0320287 0.287877 0.832929
0.482033 0.276646 0.883787
0.919844 0.0274052 0.792981
0.999954 0.454276 0.614862
1 0.705074 0.691707
1 0.950805 0.938781
1 0.998734 0.998367
0.007187 0.343481 0.72549
0.00794995 0.335836 0.729961
0.0273136 0.298299 0.832761
0.483391 0.284398 0.883772
0.920958 0.0331426 0.793606
0.999954 0.454337 0.614572
1 0.705486 0.691463
1 0.951354 0.939422
1 0.998764 0.998413
0.0255894 0.471611 0.799161
0.0245823 0.456687 0.796963
0.0556497 0.45153 0.836881
0.474525 0.469474 0.884077
0.946654 0.284733 0.821622
0.999939 0.484092 0.628061
1 0.722408 0.705394
1 0.95845 0.948028
1 0.99884 0.998505
0.370947 0.825711 0.79205
0.362768 0.820386 0.787045
0.386328 0.823453 0.791089
0.524041 0.824292 0.799588
0.802426 0.802426 0.802426
1 0.695689 0.720134
0.999969 0.763272 0.737179
1 0.968353 0.960006
1 0.99884 0.998505
0.583429 0.999969 0.749645
0.566323 0.999908 0.742794
0.581537 0.999939 0.748043
0.617868 0.999924 0.76025
0.73344 0.997192 0.780911
0.955993 0.970886 0.762097
1 0.889052 0.838682
1 0.979309 0.973434
1 0.998871 0.998535
0.889235 0.999939 0.879683
0.886213 0.999939 0.87657
0.887709 0.999939 0.878065
0.890532 0.999939 0.880766
0.897688 0.999924 0.887114
0.928176 1 0.906218
0.991623 0.99794 0.927108
1 0.99205 0.986908
1 0.998947 0.998627
0.984558 1 0.981353
0.983001 1 0.979522
0.983627 1 0.980255
0.984604 1 0.981414
0.985519 1 0.982483
0.989303 1 0.986923
0.994232 1 0.99205
0.999222 0.999939 0.995361
1 0.999817 0.999695
0.999512 1 0.99939
0.999481 1 0.999359
0.999496 1 0.999374
0.999512 1 0.99939
0.999512 1 0.99939
0.999527 1 0.999405
0.999542 1 0.999435
0.999664 1 0.999496
0.999954 1 0.99968
0.151232 0.524559 0.996597
0.155093 0.52636 0.996948
0.169314 0.529458 0.998764
0.273411 0.539376 1
0.658167 0.570748 1
1 0.53518 0.880217
0.999878 0.773541 0.82443
1 0.969635 0.966827
1 0.99881 0.998459
0.122972 0.511482 0.994125
0.100969 0.500938 0.988632
0.102235 0.498253 0.991684
0.226429 0.502678 1
0.634516 0.532631 1
1 0.486152 0.876066
0.999863 0.733761 0.7953
1 0.95346 0.949355
1 0.998657 0.99826
0.133684 0.516442 0.995056
0.108202 0.504433 0.990784
0.10724 0.500847 0.992828
0.223667 0.500023 1
0.633555 0.529946 1
1 0.48333 0.875761
0.999863 0.731929 0.793973
1 0.953384 0.949279
1 0.998688 0.998291
0.151904 0.525124 0.996689
0.124865 0.512627 0.994369
0.127413 0.510704 0.99707
0.232013 0.508949 1
0.637781 0.534142 1
1 0.490349 0.876051
0.999863 0.738659 0.798718
1 0.957366 0.953506
1 0.99881 0.998459
0.323842 0.672374 1
0.298589 0.658793 1
0.308171 0.652399 1
0.356023 0.653223 1
0.667369 0.694469 0.992706
0.999634 0.608743 0.893446
0.999832 0.765209 0.81648
1 0.96376 0.960006
1 0.998825 0.998474
0.747234 0.956619 0.93402
0.740551 0.954559 0.931609
0.744549 0.95523 0.932647
0.755093 0.956466 0.934951
0.814603 0.953582 0.937865
0.939162 0.939162 0.939162
1 0.895964 0.901122
1 0.976684 0.973083
1 0.998856 0.998505
0.916411 1 0.939055
0.913268 1 0.936782
0.914656 1 0.937758
0.917372 1 0.939666
0.92253 1 0.943023
0.942214 1 0.947997
0.991485 0.995041 0.944823
1 0.992523 0.988769
1 0.998932 0.998611
0.987564 0.999985 0.985428
0.986313 0.999985 0.984009
0.986816 0.999985 0.984588
0.987625 0.999985 0.985504
0.988418 0.999985 0.986404
0.990173 0.999985 0.988373
0.994598 1 0.99263
0.999374 0.999893 0.995544
1 0.999817 0.999695
0.999512 1 0.999405
0.999496 1 0.999374
0.999512 1 0.99939
0.999512 1 0.999405
0.999527 1 0.999405
0.999527 1 0.99942
0.999542 1 0.999435
0.999664 1 0.999512
0.999954 1 0.99968
0.688823 0.832044 0.999939
0.68716 0.831098 0.999939
0.687175 0.831113 0.999939
0.692027 0.833432 0.999969
0.717617 0.841245 0.999954
0.879377 0.862882 1
1 0.869688 0.951812
0.999985 0.979065 0.983383
1 0.998535 0.998398
0.657633 0.814008 0.999924
0.638682 0.803021 0.999908
0.632914 0.79968 0.999893
0.632197 0.798764 0.999939
0.659464 0.806012 0.999954
0.851057 0.829252 1
1 0.831144 0.939544
0.999985 0.966461 0.973373
1 0.998352 0.998169
0.663539 0.817426 0.999924
0.641321 0.804547 0.999908
0.636271 0.801633 0.999908
0.627939 0.796231 0.999939
0.655558 0.803555 0.999954
0.849653 0.827405 1
1 0.829786 0.939101
0.999985 0.966583 0.97348
1 0.998383 0.998184
0.673915 0.823438 0.999924
0.652415 0.810971 0.999908
0.648447 0.808682 0.999908
0.642039 0.804532 0.999939
0.66041 0.8065 0.999954
0.853315 0.831937 1
1 0.836866 0.941329
0.999985 0.969497 0.975845
1 0.998489 0.998306
0.68455 0.829602 0.999939
0.662715 0.816953 0.999924
0.664454 0.81796 0.999924
0.666621 0.818891 0.999939
0.676753 0.8168 0.999954
0.856733 0.834867 1
1 0.841123 0.942504
0.999985 0.971054 0.977111
1 0.99855 0.998367
0.767346 0.889738 1
0.753811 0.882551 1
0.756771 0.882963 1
0.765591 0.884794 1
0.782879 0.888838 1
0.88922 0.906722 1
1 0.888533 0.959762
0.999969 0.975982 0.980865
1 0.998596 0.998428
0.937209 0.991257 0.984771
0.934081 0.990875 0.984085
0.935332 0.990997 0.98436
0.937545 0.99118 0.984802
0.940505 0.991272 0.985321
0.955184 0.990112 0.986068
0.98645 0.98645 0.98645
1 0.991608 0.991913
1 0.998764 0.998581
0.98677 1 0.989731
0.985809 1 0.988983
0.986252 1 0.989319
0.986816 1 0.989761
0.987381 1 0.990173
0.988525 1 0.991012
0.992706 1 0.993164
0.999542 0.999756 0.996658
1 0.999756 0.999603
0.999557 1 0.999451
0.999542 1 0.99942
0.999542 1 0.999435
0.999557 1 0.999451
0.999557 1 0.999451
0.999557 1 0.999451
0.999557 1 0.999466
0.99968 1 0.999527
0.999954 1 0.999695
0.979736 0.989807 1
0.978668 0.989258 1
0.978592 0.989212 1
0.978622 0.989242 1
0.978576 0.989197 1
0.980179 0.989822 0.999969
0.991791 0.991302 1
1 0.994308 0.997864
1 0.998672 0.998978
0.972778 0.986252 1
0.968093 0.983856 1
0.966995 0.983291 1
0.965866 0.982712 1
0.96527 0.982376 1
0.967971 0.983352 0.999969
0.98735 0.986282 1
1 0.991409 0.99675
1 0.998474 0.998779
0.973724 0.98674 1
0.968414 0.984009 1
0.967132 0.983352 1
0.965057 0.9823 1
0.964279 0.981857 1
0.967346 0.983017 0.999969
0.987274 0.986206 1
1 0.991501 0.99678
1 0.998489 0.99881
0.975311 0.987549 1
0.970718 0.985199 1
0.969909 0.984787 1
0.968414 0.984009 1
0.965774 0.982635 1
0.969314 0.984054 0.999969
0.988235 0.987259 1
1 0.992218 0.997055
1 0.998566 0.998871
0.976379 0.988098 1
0.972747 0.986236 1
0.97319 0.986481 1
0.973495 0.986633 1
0.970352 0.985 1
0.970504 0.984695 0.999969
0.9888 0.987854 1
1 0.992569 0.997192
1 0.998611 0.998917
0.979202 0.989532 1
0.976074 0.987945 1
0.976211 0.988006 1
0.977142 0.988479 1
0.976379 0.988083 1
0.974182 0.986664 0.999985
0.989044 0.987991 1
1 0.992676 0.997238
1 0.998627 0.998917
0.982055 0.991867 1
0.979904 0.990875 1
0.980972 0.991302 1
0.982513 0.991897 1
0.984482 0.99266 1
0.986908 0.993515 1
0.991485 0.992996 1
1 0.994095 0.997879
1 0.998779 0.999023
0.992813 0.999451 0.998734
0.992325 0.999374 0.998596
0.992538 0.999405 0.998657
0.992798 0.999451 0.998734
0.992981 0.999481 0.998779
0.993286 0.999527 0.998871
0.994675 0.999512 0.999039
0.999146 0.999146 0.999146
1 0.999374 0.999405
0.99971 1 0.999725
0.999695 1 0.99971
0.99971 1 0.99971
0.99971 1 0.999725
0.99971 1 0.999725
0.999725 1 0.999725
0.999725 1 0.999741
0.999786 1 0.999786
0.999969 1 0.999817
0.998016 0.999023 1
0.998016 0.999023 1
0.998016 0.999023 1
0.998016 0.999023 1
0.998016 0.999023 1
0.998032 0.999023 1
0.998199 0.999084 1
0.999374 0.9991 1
1 0.999374 0.999756
0.998016 0.999023 1
0.998016 0.999023 1
0.998016 0.999023 1
0.997986 0.999008 1
0.997971 0.998993 1
0.99794 0.998978 1
0.998062 0.999008 1
0.99913 0.999008 1
1 0.999298 0.999725
0.998016 0.999023 1
0.998016 0.999023 1
0.998016 0.999023 1
0.997986 0.999008 1
0.99794 0.998993 1
0.997909 0.998962 1
0.998047 0.999008 1
0.99913 0.999023 1
1 0.999313 0.999741
0.998016 0.999023 1
0.998016 0.999023 1
0.998016 0.999023 1
0.998016 0.999023 1
0.997971 0.999008 1
0.997986 0.999008 1
0.998138 0.999054 1
0.999191 0.999054 1
1 0.999344 0.999741
0.998016 0.999023 1
0.998016 0.999023 1
0.998016 0.999023 1
0.998016 0.999023 1
0.998016 0.999023 1
0.998016 0.999023 1
0.998169 0.999069 1
0.999222 0.999084 1
1 0.999359 0.999756
0.998016 0.999023 1
0.998016 0.999023 1
0.998016 0.999023 1
0.998016 0.999023 1
0.998016 0.999023 1
0.998032 0.999023 1
0.998184 0.999069 1
0.999237 0.999084 1
1 0.999359 0.999756
0.998032 0.999023 1
0.998032 0.999023 1
0.998016 0.999023 1
0.998032 0.999023 1
0.998032 0.999023 1
0.998032 0.999023 1
0.998184 0.999084 1
0.999252 0.999084 1
1 0.999359 0.999756
0.998505 0.999329 1
0.998459 0.999298 1
0.998474 0.999313 1
0.998489 0.999313 1
0.998489 0.999313 1
0.998489 0.999313 1
0.998566 0.999329 1
0.999298 0.999359 1
1 0.999466 0.999802
0.999527 1 0.999954
0.999512 1 0.999954
0.999512 1 0.999954
0.999527 1 0.999954
0.999527 1 0.999954
0.999527 1 0.999954
0.999542 1 0.999969
0.999664 1 0.999969
1 1 1
