Apps/Android/app/src/main/assets/luts/DJI_Official_Pocket4P_DLog2_Rec709_33.cube
# DaVinci Resolve Cube (3D LUT).
#
#Generated by LUT Editor.
#Not-Clipped.
#
LUT_3D_SIZE	33
0 0 0
0.00015259 0.00244144 0.00231937
0.0104219 0.0024567 0.00451667
0.0230564 0.00268559 0.0078584
0.0365759 0.00334173 0.0116426
0.054551 0.00428779 0.0161593
0.0827039 0.00556954 0.0221866
0.123919 0.0069276 0.0297093
0.183474 0.00808728 0.0390631
0.259937 0.00979629 0.0501869
0.351217 0.0114595 0.0632486
0.452552 0.01561 0.0783856
0.559106 0.0212406 0.0953231
0.665278 0.0255741 0.113191
0.767239 0.0233768 0.130617
0.862882 0.01561 0.146746
0.945953 0.0352941 0.165713
0.994141 0.141222 0.201801
1 0.268315 0.25478
1 0.355749 0.308812
0.999908 0.424704 0.364111
0.999893 0.494682 0.426978
0.999939 0.570108 0.500496
0.999985 0.650507 0.585046
1 0.733669 0.677897
1 0.813718 0.771298
1 0.883467 0.855161
1 0.937026 0.920745
1 0.971954 0.964248
1 0.989731 0.98677
1 0.99649 0.995453
1 0.99855 0.998108
1 0.99884 0.998505
0.0027924 0.00158694 0.00289921
0.00335698 0.00415045 0.00534066
0.0162356 0.00323491 0.00552377
0.0297398 0.00256352 0.00827039
0.0437171 0.00263981 0.0116426
0.0622873 0.00299077 0.0157778
0.090547 0.00369268 0.0213016
0.131518 0.00454719 0.0281529
0.188373 0.00552377 0.0365301
0.260716 0.00704967 0.0466316
0.347402 0.00875868 0.0587472
0.445563 0.012726 0.0732433
0.549859 0.0177462 0.0898146
0.653971 0.0225528 0.107576
0.755261 0.0227207 0.125444
0.850919 0.0161593 0.142077
0.936629 0.027985 0.160311
0.990814 0.121508 0.193347
1 0.252445 0.245747
1 0.344411 0.300206
0.999939 0.414557 0.355261
0.999878 0.483116 0.416144
0.999939 0.55729 0.487633
0.999985 0.637781 0.571283
1 0.720684 0.663035
1 0.801801 0.757107
1 0.873854 0.843442
1 0.930632 0.91284
1 0.967941 0.959197
1 0.987869 0.98439
1 0.995895 0.994675
1 0.998367 0.997879
1 0.99884 0.998505
0.00140383 0.0142519 0.00903334
0.00163272 0.0184634 0.0108034
0.0167086 0.0216373 0.00627146
0.0382391 0.0227512 0.00428779
0.0577249 0.0222782 0.00521859
0.0780346 0.0219577 0.00730907
0.105669 0.0209812 0.0112764
0.143999 0.0188296 0.0168154
0.197589 0.0155337 0.0242466
0.266148 0.0119631 0.034165
0.349889 0.00946059 0.0471962
0.443442 0.00975052 0.0635996
0.543206 0.0135195 0.0820172
0.644419 0.0195773 0.101137
0.744503 0.0224918 0.119966
0.839429 0.017792 0.13724
0.925429 0.0240635 0.155062
0.985214 0.102724 0.185275
1 0.234394 0.235935
1 0.33193 0.290684
1 0.401999 0.344244
0.999863 0.469535 0.403403
0.999939 0.542672 0.472938
0.999985 0.621622 0.553964
1 0.703822 0.643992
1 0.785382 0.73785
1 0.860151 0.826886
1 0.919905 0.899657
1 0.961578 0.951232
1 0.985107 0.98088
1 0.994888 0.993378
1 0.998047 0.997467
1 0.99884 0.998505
0.00149538 0.0290837 0.0168002
0.000900282 0.0339818 0.0183719
0.0148928 0.0414282 0.0115358
0.041062 0.0484627 0.00526436
0.0669566 0.0543374 0.00317388
0.0945754 0.0576638 0.0033875
0.126528 0.0587167 0.00477607
0.165789 0.0572976 0.00717174
0.218021 0.051545 0.0114595
0.284718 0.0413367 0.018555
0.36434 0.0276646 0.0309148
0.454337 0.0174563 0.0496223
0.550256 0.0145113 0.0718395
0.64831 0.0186007 0.0946365
0.744701 0.0223697 0.115709
0.837827 0.018555 0.134142
0.922652 0.0235294 0.152316
0.983017 0.0975509 0.182208
1 0.227604 0.232059
1 0.325658 0.286107
1 0.396521 0.339467
0.999863 0.463706 0.39794
0.999939 0.535103 0.465309
0.999985 0.612848 0.544549
1 0.694194 0.633127
1 0.776196 0.727062
1 0.850782 0.815579
1 0.912505 0.890578
1 0.956664 0.945098
1 0.982406 0.977447
1 0.993912 0.992126
1 0.997772 0.997116
1 0.99884 0.998505
0.00251774 0.0446632 0.0246738
0.000900282 0.0497597 0.0263828
0.0128786 0.0603494 0.0187686
0.0417182 0.0728771 0.00946059
0.0733196 0.0843214 0.00503548
0.106218 0.0939956 0.00357061
0.145693 0.0996109 0.00373846
0.191516 0.0999771 0.00442512
0.243336 0.0969863 0.00604257
0.304891 0.0855573 0.00900282
0.382132 0.0656596 0.0167849
0.469902 0.0419318 0.0340887
0.563943 0.0255131 0.0589303
0.658549 0.0218204 0.086183
0.751415 0.0227817 0.110933
0.841718 0.0183413 0.13138
0.925017 0.0235599 0.150607
0.983963 0.0991379 0.181537
1 0.228946 0.231983
1 0.325811 0.285786
1 0.395926 0.338781
0.999863 0.462623 0.396796
0.999939 0.533471 0.4636
0.999985 0.61059 0.542062
1 0.691737 0.630304
1 0.773587 0.72398
1 0.848646 0.813001
1 0.910719 0.88838
1 0.9552 0.943282
1 0.981582 0.97641
1 0.993561 0.991669
1 0.99765 0.996948
1 0.99884 0.998505
0.00349432 0.0637675 0.033814
0.00120546 0.0686198 0.0355688
0.0104524 0.0810407 0.0278325
0.0391699 0.0977646 0.0159762
0.0750744 0.113497 0.00860609
0.113359 0.127321 0.00529488
0.157702 0.139467 0.0043183
0.208682 0.145205 0.00450141
0.265843 0.141314 0.00489815
0.32781 0.131289 0.00553903
0.401923 0.111315 0.00944533
0.487648 0.0804303 0.0220645
0.580087 0.0496071 0.0455634
0.670924 0.0321813 0.0749676
0.760784 0.0251621 0.104143
0.848295 0.018204 0.128435
0.929763 0.024445 0.149599
0.985351 0.102327 0.181827
1 0.231647 0.232471
1 0.327276 0.286198
1 0.396902 0.339223
0.999863 0.462745 0.396704
0.999954 0.533227 0.463249
1 0.609796 0.541146
1 0.691447 0.629938
0.999985 0.772641 0.72285
1 0.847669 0.811826
1 0.909941 0.887419
1 0.954696 0.942657
1 0.981247 0.975982
1 0.993423 0.991485
1 0.997589 0.996872
1 0.998825 0.998489
0.00363165 0.0916915 0.0464485
0.00135805 0.0963912 0.0482795
0.00782788 0.109926 0.0408026
0.0328069 0.129015 0.0268864
0.0707866 0.148516 0.0155947
0.11429 0.165881 0.00885023
0.165759 0.182345 0.00572213
0.220508 0.194491 0.00544747
0.281773 0.196735 0.00514229
0.348928 0.188785 0.00448615
0.425071 0.169909 0.00556954
0.508019 0.1393 0.0128939
0.598383 0.0958724 0.0310521
0.688594 0.0572976 0.0609293
0.775235 0.033463 0.0941939
0.859297 0.0179141 0.122271
0.935699 0.0242771 0.146685
0.987594 0.107118 0.182025
1 0.236805 0.234012
1 0.330144 0.287465
0.999969 0.398688 0.340276
0.999863 0.463874 0.397452
0.999954 0.534005 0.463828
1 0.610132 0.54139
1 0.691737 0.630213
0.999985 0.772702 0.722896
1 0.847639 0.811765
1 0.909834 0.887297
1 0.954803 0.942794
1 0.981216 0.975952
1 0.993378 0.99144
1 0.997574 0.996857
1 0.998825 0.998474
0.00404364 0.131746 0.0636759
0.00215152 0.135882 0.0652323
0.00514229 0.14934 0.058732
0.0236973 0.169085 0.044358
0.0588235 0.189929 0.0276341
0.10454 0.209995 0.0157321
0.163012 0.229679 0.00846876
0.22681 0.24593 0.00581369
0.291493 0.255573 0.00541695
0.362661 0.254108 0.00497444
0.440772 0.240894 0.00494392
0.530495 0.210361 0.00924697
0.61825 0.166888 0.0204318
0.709056 0.109392 0.0433661
0.795605 0.0567941 0.0764935
0.875288 0.0224918 0.109865
0.946105 0.0263218 0.141009
0.991043 0.115572 0.182223
1 0.244892 0.236667
1 0.335119 0.290044
0.999924 0.40145 0.342
0.999847 0.466026 0.399023
0.999954 0.53579 0.465324
1 0.612253 0.543526
1 0.692699 0.631205
0.999985 0.773693 0.724025
1 0.848371 0.812634
1 0.91075 0.888411
1 0.955123 0.943175
1 0.981399 0.976165
1 0.993439 0.991531
1 0.997604 0.996887
1 0.998825 0.998489
0.00468452 0.184451 0.0854963
0.0027924 0.188647 0.0868849
0.00224308 0.201129 0.0824598
0.0140383 0.219745 0.0690776
0.0403754 0.239994 0.0502937
0.0814221 0.259754 0.0315251
0.142992 0.281315 0.0158389
0.216632 0.300435 0.00740063
0.292805 0.314488 0.00610361
0.367391 0.321279 0.00698863
0.449042 0.315709 0.00776684
0.537194 0.295109 0.0104677
0.634226 0.253803 0.0175021
0.7299 0.190997 0.0311131
0.818189 0.111681 0.0540017
0.89691 0.0449073 0.0883955
0.961028 0.039765 0.130358
0.996078 0.134997 0.182635
1 0.257664 0.24065
1 0.341344 0.293294
0.999863 0.405493 0.34461
0.999832 0.469322 0.40148
0.999954 0.538994 0.468162
1 0.614771 0.546014
0.999985 0.694759 0.633417
0.999969 0.775464 0.72604
1 0.850034 0.814603
1 0.911849 0.889738
1 0.95581 0.94403
1 0.98175 0.976608
1 0.993606 0.99173
1 0.997665 0.996963
1 0.99884 0.998505
0.00682078 0.250126 0.111864
0.00408942 0.253956 0.113054
0.00151064 0.264424 0.110597
0.0055848 0.28072 0.100435
0.0195621 0.297917 0.0833448
0.0485695 0.315785 0.0605325
0.104814 0.337102 0.0345159
0.184451 0.358495 0.0153506
0.275105 0.375662 0.00762951
0.363043 0.387411 0.0080415
0.448112 0.390173 0.0104219
0.537652 0.378714 0.0141909
0.634867 0.349767 0.019791
0.738506 0.294636 0.0271153
0.839139 0.202289 0.0370794
0.921126 0.104417 0.0619516
0.978653 0.079881 0.115923
0.999557 0.172305 0.184985
1 0.275196 0.246204
1 0.349447 0.297673
0.999786 0.411154 0.348424
0.999817 0.47451 0.405539
0.999954 0.543282 0.471962
1 0.618341 0.549554
0.999985 0.697887 0.63682
0.999969 0.778134 0.729091
0.999985 0.852628 0.8177
1 0.913481 0.891722
1 0.956786 0.945235
1 0.982254 0.977249
1 0.993866 0.992065
1 0.997742 0.997055
1 0.99884 0.998505
0.00888075 0.325872 0.141787
0.00474556 0.329763 0.142855
0.000839246 0.337469 0.141939
0.000549325 0.34992 0.135195
0.00563058 0.363806 0.122545
0.0209812 0.37908 0.102647
0.0587472 0.39823 0.0715038
0.131411 0.42063 0.037644
0.23122 0.439963 0.0163424
0.336309 0.454231 0.0096437
0.434928 0.46157 0.0113832
0.528908 0.459129 0.0162661
0.626993 0.442374 0.0224308
0.732662 0.402747 0.0278325
0.841047 0.328801 0.0320745
0.938186 0.222034 0.0472114
0.991516 0.175509 0.111727
1 0.228 0.193149
1 0.299001 0.254383
0.999954 0.360357 0.30367
0.999741 0.418967 0.353811
0.999832 0.481132 0.410742
0.999969 0.548959 0.477043
1 0.623148 0.55433
0.999985 0.702068 0.641337
0.999969 0.781964 0.733486
0.999985 0.855207 0.820752
1 0.91548 0.894163
1 0.958053 0.946822
1 0.983139 0.978363
1 0.994156 0.992447
1 0.997833 0.997177
1 0.99884 0.998505
0.00872816 0.409384 0.174548
0.00604257 0.411399 0.174716
0.00230411 0.41651 0.174334
0.000198367 0.425238 0.171496
0 0.435676 0.164172
0.00494392 0.449058 0.151171
0.0226902 0.465553 0.125612
0.0714733 0.485237 0.0858015
0.161715 0.505989 0.0451362
0.277958 0.522744 0.0197147
0.397024 0.533104 0.0124361
0.506569 0.536171 0.0152132
0.609827 0.528313 0.0221714
0.714885 0.503395 0.0270542
0.827878 0.450858 0.0310369
0.933532 0.370123 0.0467536
0.994537 0.302388 0.122454
1 0.29955 0.210712
1 0.331304 0.266804
0.999802 0.376303 0.312367
0.999756 0.429145 0.360632
0.999893 0.489174 0.416999
0.999985 0.556329 0.483635
1 0.630182 0.561379
0.999985 0.708293 0.648081
0.999969 0.786404 0.738552
1 0.858381 0.824521
1 0.9178 0.896971
1 0.959991 0.949218
1 0.984009 0.979477
1 0.994522 0.992905
1 0.997909 0.997284
1 0.99884 0.998505
0.00839246 0.496208 0.208804
0.00773632 0.49659 0.208164
0.00540169 0.498955 0.207919
0.00254826 0.505043 0.206943
0.00062562 0.513207 0.203983
0.00030518 0.523171 0.19762
0.00500496 0.53608 0.181598
0.0260624 0.552529 0.149554
0.0799878 0.572244 0.10103
0.186435 0.591684 0.0509499
0.322805 0.606439 0.0197299
0.456474 0.612421 0.012604
0.577173 0.610101 0.0166629
0.689052 0.594491 0.0231937
0.800626 0.560327 0.027451
0.915267 0.499367 0.0450294
0.990387 0.432395 0.125521
1 0.38996 0.229694
1 0.378805 0.286549
0.999786 0.40061 0.325078
0.999741 0.443595 0.369985
0.999924 0.499901 0.425299
1 0.565576 0.49192
1 0.638376 0.569543
1 0.715251 0.655589
1 0.792142 0.745098
1 0.862867 0.829862
1 0.921172 0.901076
1 0.961929 0.951614
1 0.985031 0.980758
1 0.994781 0.99324
1 0.997986 0.997391
1 0.99884 0.998505
0.00903334 0.583764 0.243977
0.00880446 0.582574 0.242649
0.00750744 0.583047 0.242084
0.00560006 0.587549 0.242466
0.00337224 0.592813 0.241657
0.0011902 0.599924 0.239216
6.10361e-05 0.609812 0.231662
0.00303655 0.62266 0.212833
0.0231022 0.639597 0.174731
0.0858778 0.659678 0.113725
0.208667 0.677546 0.0518044
0.366339 0.688609 0.0170291
0.515145 0.689738 0.0109407
0.64596 0.681361 0.0150759
0.766583 0.657115 0.0190585
0.881559 0.614328 0.0328069
0.976211 0.553643 0.106935
1 0.498802 0.240146
1 0.455589 0.311833
0.999924 0.44152 0.345785
0.999695 0.467018 0.384771
0.999863 0.515389 0.437125
0.999969 0.577157 0.50222
1 0.647669 0.578744
1 0.72343 0.664393
1 0.798962 0.752865
1 0.868803 0.836912
1 0.924987 0.905715
1 0.963912 0.954101
1 0.985779 0.981704
1 0.995026 0.993561
1 0.998062 0.997497
1 0.99884 0.998505
0.00746166 0.670283 0.278233
0.00749218 0.667826 0.276631
0.00689708 0.667597 0.276127
0.00575265 0.669932 0.276448
0.00419623 0.673472 0.276677
0.00218204 0.67837 0.276677
0.000183108 0.685389 0.274479
0 0.696193 0.266651
0.00149538 0.708995 0.243885
0.0205539 0.725811 0.198108
0.0924239 0.744961 0.12549
0.234195 0.760922 0.0538643
0.409644 0.76846 0.0185397
0.570932 0.76492 0.0109407
0.711589 0.749111 0.00967422
0.837964 0.715908 0.0182803
0.943801 0.668727 0.0702373
0.999084 0.611078 0.222583
1 0.556725 0.338994
1 0.51371 0.379538
0.99971 0.505241 0.407462
0.999786 0.538262 0.454353
0.999924 0.59234 0.515496
1 0.659175 0.590112
1 0.73312 0.674784
1 0.807385 0.762463
1 0.874662 0.84387
1 0.928679 0.910216
1 0.96582 0.956451
1 0.986618 0.982773
1 0.995315 0.993927
1 0.998138 0.997589
1 0.99884 0.998505
0.00384527 0.755459 0.30399
0.00422675 0.752438 0.303319
0.00419623 0.750423 0.303105
0.00367742 0.751659 0.303731
0.00282292 0.753979 0.304555
0.00154116 0.757259 0.305653
0.000213626 0.762966 0.306203
0 0.770275 0.304509
0 0.779599 0.296407
0.000656138 0.792218 0.272847
0.0213321 0.808865 0.221286
0.0999008 0.827482 0.142138
0.25594 0.841642 0.0599832
0.444221 0.845487 0.0186313
0.618921 0.835523 0.00332647
0.769329 0.811933 0.00161746
0.896574 0.771405 0.0340429
0.981186 0.722072 0.156878
1 0.663767 0.336416
1 0.610529 0.420722
1 0.57348 0.447517
0.999725 0.57229 0.476814
0.999893 0.613794 0.533776
0.999985 0.674678 0.605371
1 0.744381 0.686915
1 0.815427 0.771618
1 0.880522 0.850813
1 0.932433 0.914763
1 0.967971 0.959136
1 0.987442 0.98381
1 0.995544 0.994232
1 0.998215 0.997696
1 0.99884 0.998505
0.000122072 0.838026 0.316701
0.000350958 0.834104 0.316793
0.000503548 0.831495 0.317235
0.000396735 0.832013 0.318105
0.000289921 0.833494 0.319112
1.5259e-05 0.836439 0.320607
0 0.839963 0.322118
0 0.844999 0.323629
0 0.852079 0.323644
0 0.860441 0.31722
0 0.872923 0.29601
0.0138247 0.888823 0.242451
0.0964828 0.905974 0.154253
0.270008 0.91696 0.0615091
0.477501 0.916121 0.011841
0.664012 0.89987 0
0.818814 0.869551 0.00231937
0.937575 0.823377 0.0764935
0.996094 0.770672 0.263157
1 0.713191 0.433845
1 0.665156 0.497917
0.999985 0.636057 0.520272
0.999832 0.643992 0.555749
0.999939 0.69221 0.621317
1 0.758434 0.702022
1 0.825193 0.782788
0.999985 0.887282 0.858808
1 0.936782 0.920027
1 0.970108 0.961791
1 0.988312 0.984924
1 0.995819 0.994583
1 0.998306 0.997803
1 0.998856 0.998505
0 0.914443 0.328573
0 0.910506 0.328252
0 0.907713 0.328298
0 0.908202 0.329091
0 0.909499 0.330053
0 0.911086 0.331395
0 0.913542 0.333104
0 0.91693 0.335637
0 0.921981 0.338704
0 0.928267 0.340963
0 0.935912 0.336797
0 0.946456 0.316991
0.0337377 0.95996 0.265476
0.148104 0.972686 0.182544
0.350866 0.977478 0.110414
0.552239 0.971328 0.0762036
0.720928 0.951553 0.0455024
0.862699 0.917189 0.0475624
0.962524 0.868116 0.167895
0.998718 0.814481 0.378195
1 0.761868 0.524132
1 0.721096 0.574975
0.999969 0.702358 0.600122
0.999893 0.718868 0.642771
0.999969 0.770794 0.713481
1 0.837934 0.79733
1 0.895048 0.868025
1 0.941161 0.925338
1 0.972457 0.964706
1 0.989395 0.986297
1 0.99617 0.995026
1 0.998398 0.997909
1 0.998856 0.998505
0.0876173 0.974777 0.366567
0.0800031 0.971756 0.364019
0.0745708 0.969848 0.362478
0.0751507 0.96997 0.363058
0.0763714 0.970687 0.36408
0.0788891 0.971603 0.365682
0.0820325 0.973114 0.36788
0.0867475 0.975021 0.371283
0.0930343 0.978027 0.376211
0.099855 0.98146 0.381964
0.107485 0.985 0.387045
0.126101 0.989563 0.388922
0.177783 0.994781 0.38146
0.270634 0.999756 0.364309
0.403433 0.999878 0.346578
0.541527 0.999725 0.330495
0.669596 0.99707 0.286061
0.791333 0.98233 0.206882
0.90399 0.951644 0.175799
0.978042 0.904814 0.308965
0.999527 0.854536 0.499321
1 0.809644 0.611612
1 0.778637 0.655161
0.999985 0.769375 0.684642
0.999924 0.792828 0.732586
0.999969 0.844556 0.803098
1 0.902373 0.876524
1 0.946746 0.932143
1 0.975204 0.968139
1 0.990433 0.98761
1 0.996506 0.995453
1 0.998505 0.998047
1 0.998856 0.99852
0.360342 0.999908 0.470741
0.345739 0.99913 0.464897
0.333318 0.998505 0.459937
0.332464 0.998474 0.459922
0.335363 0.99852 0.461555
0.33991 0.998657 0.463951
0.348882 0.999008 0.468574
0.358297 0.999252 0.473732
0.369757 0.999573 0.480522
0.384436 0.999863 0.489372
0.401968 1 0.500099
0.423743 1 0.512062
0.454459 1 0.524437
0.50161 1 0.537667
0.564034 1 0.553552
0.635431 1 0.56817
0.708705 1 0.566354
0.7832 1 0.521004
0.862257 0.995697 0.432547
0.938964 0.973129 0.390692
0.986862 0.933196 0.492714
0.999756 0.890379 0.621683
1 0.855772 0.6981
1 0.834333 0.73608
0.999985 0.833829 0.7691
0.999939 0.861097 0.818357
0.999985 0.905898 0.879469
1 0.949477 0.935317
1 0.97818 0.971862
1 0.991562 0.989059
1 0.996811 0.99585
1 0.998581 0.998169
1 0.998871 0.99852
0.613993 1 0.625376
0.602487 1 0.617044
0.592935 1 0.610666
0.592187 1 0.6103
0.594385 1 0.611978
0.598611 1 0.615183
0.603952 1 0.619196
0.610162 1 0.623972
0.617945 1 0.630121
0.626871 1 0.637629
0.63856 1 0.647669
0.649485 1 0.656901
0.663218 1 0.66743
0.683055 1 0.681071
0.710231 1 0.698787
0.745113 1 0.720485
0.785489 1 0.740047
0.825788 1 0.742077
0.867704 1 0.709468
0.913848 0.999619 0.646006
0.960571 0.984955 0.613031
0.991135 0.954437 0.65803
0.999863 0.92163 0.726177
1 0.897002 0.777615
1 0.88455 0.812467
1 0.891035 0.846372
0.999954 0.916976 0.890028
0.999985 0.951125 0.936599
1 0.97818 0.971786
1 0.992386 0.990127
1 0.997055 0.99617
1 0.998657 0.998245
1 0.998871 0.998535
0.762722 1 0.750195
0.758633 1 0.746349
0.753475 1 0.741802
0.753063 1 0.741466
0.755032 1 0.743221
0.756634 1 0.744701
0.75903 1 0.746883
0.761685 1 0.74934
0.764096 1 0.751675
0.767681 1 0.755184
0.771221 0.999985 0.758648
0.775402 0.999969 0.762722
0.779599 0.999908 0.766751
0.785962 0.999847 0.772488
0.795895 0.999817 0.781018
0.809049 0.999863 0.791562
0.827085 0.999985 0.804822
0.849729 1 0.817533
0.87602 1 0.822522
0.906142 1 0.810468
0.939666 1 0.781933
0.972076 0.991562 0.75697
0.993866 0.970565 0.765225
0.999924 0.947417 0.806485
1 0.931441 0.84712
1 0.926345 0.877684
1 0.935836 0.907988
0.999969 0.957107 0.942382
0.999985 0.978683 0.972091
1 0.992111 0.989746
1 0.997162 0.996292
1 0.998718 0.998337
1 0.998886 0.998535
0.815961 0.999939 0.801541
0.814389 0.999939 0.799954
0.813214 0.999939 0.798749
0.813336 0.999924 0.798856
0.813565 0.999924 0.799069
0.813916 0.999924 0.799405
0.81442 0.999924 0.799908
0.815061 0.999924 0.800534
0.816083 0.999924 0.801526
0.817029 0.999924 0.802426
0.818204 0.999924 0.803555
0.819577 0.999924 0.804822
0.821103 0.999908 0.806165
0.823163 0.999893 0.807904
0.826383 0.999863 0.810483
0.8318 0.999832 0.814603
0.84062 0.999817 0.820951
0.854353 0.999939 0.830381
0.873426 1 0.841993
0.897246 1 0.852491
0.924437 1 0.855787
0.953094 1 0.847425
0.97908 0.995911 0.831846
0.995483 0.982376 0.838041
0.999939 0.966888 0.872374
1 0.957626 0.902495
1 0.957519 0.927733
1 0.967269 0.95227
0.999985 0.98114 0.974472
1 0.99205 0.989578
1 0.996994 0.996094
1 0.998718 0.998322
1 0.998886 0.99855
0.84268 0.999985 0.828122
0.841245 0.999985 0.826688
0.84004 0.999985 0.825483
0.839902 0.999985 0.82533
0.840116 0.999985 0.825513
0.840436 0.999985 0.825818
0.841031 0.999985 0.826368
0.841764 0.999985 0.82707
0.842527 0.999985 0.827771
0.843427 0.999985 0.828595
0.844465 0.999985 0.829526
0.845975 0.999985 0.830869
0.847456 0.999985 0.832151
0.848783 0.999985 0.833173
0.85066 0.999969 0.834546
0.853651 0.999939 0.836698
0.858824 0.999893 0.84036
0.867079 0.999863 0.846143
0.87953 0.999908 0.854551
0.896574 1 0.865675
0.917372 1 0.877638
0.940414 1 0.885969
0.964034 1 0.887175
0.984497 0.998062 0.886946
0.996567 0.989502 0.898344
0.999939 0.980179 0.920989
1 0.976135 0.942809
1 0.978546 0.962707
1 0.98558 0.97879
0.999985 0.992737 0.990173
1 0.996933 0.995987
1 0.998672 0.99826
1 0.998901 0.998566
0.873549 1 0.85893
0.871702 1 0.857023
0.870222 1 0.855512
0.870069 1 0.855344
0.870314 1 0.855573
0.870726 1 0.855985
0.871504 1 0.856748
0.87219 1 0.857435
0.872999 1 0.858228
0.873945 1 0.859159
0.875196 1 0.860365
0.87657 1 0.861692
0.877989 1 0.86302
0.879423 1 0.864332
0.880766 1 0.865446
0.882841 0.999985 0.86717
0.885756 0.999969 0.869459
0.890394 0.999939 0.872938
0.897475 0.999893 0.878111
0.907881 0.999908 0.885405
0.921843 0.999985 0.895125
0.93846 1 0.906065
0.956741 1 0.915953
0.974777 1 0.923125
0.989441 0.998917 0.928649
0.997635 0.993912 0.937362
0.999939 0.989075 0.953796
1 0.987945 0.970016
1 0.990478 0.98323
1 0.994263 0.991562
1 0.997086 0.996078
1 0.998688 0.998276
1 0.998947 0.998611
0.906859 1 0.893584
0.904952 1 0.891554
0.903471 1 0.889967
0.903304 1 0.889769
0.903792 1 0.890272
0.904158 1 0.890669
0.904692 1 0.891234
0.905333 1 0.891905
0.906096 1 0.892699
0.90724 1 0.893889
0.908202 1 0.894911
0.9093 1 0.89604
0.910491 1 0.897261
0.911864 1 0.898665
0.913146 1 0.899947
0.914305 1 0.901015
0.915923 1 0.90248
0.918334 0.999985 0.90457
0.922194 0.999954 0.907759
0.928145 0.999939 0.912581
0.936202 0.999924 0.9187
0.946853 0.999985 0.926894
0.959289 1 0.936431
0.972396 1 0.945663
0.984726 1 0.953017
0.993759 0.99939 0.956802
0.998459 0.996735 0.96318
0.999954 0.994583 0.975601
1 0.994598 0.986252
1 0.996094 0.993103
1 0.997635 0.996536
1 0.998764 0.998337
1 0.999054 0.998749
0.938216 1 0.92781
0.936507 1 0.925887
0.935149 1 0.924376
0.93518 1 0.924407
0.935424 1 0.924681
0.935744 1 0.925032
0.936202 1 0.925536
0.936767 1 0.926177
0.937606 1 0.927092
0.938415 1 0.927977
0.939223 1 0.928878
0.940093 1 0.929839
0.94107 1 0.930922
0.942336 1 0.932311
0.943389 1 0.93344
0.944076 1 0.934157
0.944991 1 0.935103
0.946334 1 0.936446
0.94844 0.999985 0.938521
0.951431 0.999969 0.941268
0.955673 0.999954 0.945006
0.961471 0.999954 0.949966
0.968917 0.999985 0.956512
0.977234 1 0.963958
0.985351 1 0.970565
0.992035 1 0.974182
0.996292 0.99968 0.975082
0.998932 0.998413 0.981033
0.999924 0.997604 0.989075
1 0.997787 0.994415
1 0.998428 0.997238
1 0.999069 0.998627
1 0.999283 0.998993
0.964828 1 0.958068
0.963439 1 0.956466
0.962539 1 0.955428
0.962402 1 0.955276
0.962539 1 0.955444
0.962783 1 0.955718
0.963149 1 0.95613
0.96379 1 0.956878
0.964309 1 0.957473
