Apps/Android/app/src/main/assets/luts/DJI_Pocket4P_DLog_Rec709_33.cube
TITLE "Generated by Resolve"
LUT_3D_SIZE 33
0.0107576 0.0107271 0.0104372
0.0107576 0.0107271 0.0104372
0.0114137 0.0107271 0.0104677
0.0176547 0.010605 0.0105745
0.0282292 0.0104219 0.0108339
0.041001 0.0100862 0.0113527
0.0573281 0.00958267 0.0121004
0.0774243 0.00895705 0.0134279
0.102998 0.00825513 0.0157015
0.137041 0.00738537 0.0195621
0.18233 0.00663767 0.0255894
0.251606 0.00709544 0.0388342
0.348653 0.0109712 0.0634318
0.439796 0.0134432 0.0907607
0.522133 0.0134737 0.117144
0.605722 0.0100252 0.143435
0.686854 0.00263981 0.169848
0.760494 0.000167849 0.190433
0.82092 0 0.211414
0.843427 0 0.233906
0.854566 0 0.266377
0.862974 0 0.302693
0.868955 0.00512703 0.349401
0.872404 0.0439155 0.407736
0.877455 0.0648051 0.484016
0.891218 0.0907301 0.57409
0.90396 0.187411 0.671626
0.908324 0.29424 0.75964
0.919066 0.393744 0.821378
0.927047 0.464332 0.855833
0.927489 0.468482 0.857801
0.927489 0.468482 0.857801
0.927489 0.468482 0.857801
0.0107576 0.0107271 0.0104372
0.0107576 0.0107271 0.0104372
0.0124666 0.0107118 0.0104829
0.0213321 0.0105898 0.0106508
0.0309911 0.0103609 0.0108949
0.0431525 0.0100404 0.0114595
0.0590524 0.00953689 0.012192
0.0789044 0.00892653 0.0135348
0.104555 0.00820935 0.0157931
0.139071 0.00730907 0.0195773
0.186069 0.00639353 0.0252079
0.253422 0.00531014 0.0344244
0.34583 0.0065919 0.0530098
0.4365 0.00794995 0.0758984
0.519295 0.00766003 0.102281
0.604044 0.00503548 0.131548
0.685069 0.00151064 0.160464
0.759213 9.15541e-05 0.185687
0.820569 0 0.209018
0.843976 0 0.23508
0.855512 0 0.26865
0.863676 0 0.305165
0.869215 0.00674449 0.352255
0.872312 0.0454719 0.410056
0.877623 0.0644388 0.486503
0.891752 0.09337 0.576577
0.904082 0.190814 0.673579
0.9084 0.296681 0.760754
0.919127 0.395346 0.821836
0.927123 0.465553 0.856123
0.927596 0.469688 0.858091
0.927596 0.469688 0.858091
0.927596 0.469688 0.858091
0.010956 0.0129397 0.0106508
0.0109865 0.0131228 0.0106813
0.0112306 0.0129244 0.0106661
0.0187839 0.0138247 0.0111543
0.0320745 0.0133211 0.0113527
0.0459602 0.011841 0.0112764
0.0614939 0.0104829 0.0117342
0.0805676 0.00932326 0.0129244
0.105501 0.00842298 0.0148013
0.138949 0.00741588 0.0177005
0.185702 0.00645457 0.0223545
0.253666 0.00546273 0.0307622
0.344625 0.00633249 0.0464637
0.434806 0.00630198 0.0666056
0.516854 0.0037232 0.0894636
0.600793 0.00103761 0.116701
0.681834 0.00103761 0.145525
0.756405 0.000106813 0.171786
0.817182 0 0.19826
0.842206 0 0.227543
0.854749 0 0.263569
0.863966 0 0.30515
0.869459 0.00788891 0.354208
0.872236 0.0469215 0.412192
0.878294 0.0674449 0.489952
0.892363 0.097322 0.579309
0.904204 0.194141 0.67541
0.908476 0.298955 0.761791
0.919234 0.396857 0.822309
0.927184 0.466682 0.856382
0.927657 0.470817 0.858351
0.927657 0.470817 0.858351
0.927657 0.470817 0.858351
0.0114443 0.0242008 0.0118105
0.0114748 0.0247654 0.0118868
0.0115663 0.0243381 0.0118105
0.0160067 0.0232853 0.0115969
0.0308232 0.0250706 0.0129091
0.0510567 0.0248722 0.0142977
0.0702831 0.0222782 0.0139773
0.0888838 0.0184176 0.0133364
0.111818 0.0150301 0.0139773
0.143191 0.0123445 0.0166018
0.188876 0.00999466 0.0212711
0.256962 0.0089723 0.029572
0.345434 0.00988785 0.0428931
0.43241 0.00814832 0.0597238
0.513695 0.0034638 0.0784009
0.595987 0.000274662 0.101518
0.676997 0 0.127962
0.752834 0 0.153857
0.812253 0 0.175845
0.839323 0 0.21384
0.85243 0 0.251926
0.863645 0 0.298955
0.869703 0.00697337 0.352117
0.872435 0.0485237 0.413626
0.879149 0.0714122 0.494041
0.893172 0.102632 0.582879
0.904372 0.198398 0.67776
0.908553 0.3019 0.763165
0.919341 0.398795 0.822889
0.927275 0.468162 0.856718
0.927749 0.472251 0.858656
0.927749 0.472251 0.858656
0.927749 0.472251 0.858656
0.0136721 0.0531472 0.0153811
0.0137331 0.0539101 0.0155032
0.0138094 0.0544442 0.0155337
0.0157015 0.0499886 0.0135653
0.0269627 0.0470436 0.0140841
0.0508431 0.0514076 0.0158389
0.0821393 0.0543984 0.0189975
0.111727 0.0516518 0.0213779
0.138369 0.0437476 0.0205539
0.171115 0.0356298 0.0191043
0.217212 0.0299382 0.0210422
0.279286 0.0248264 0.0274815
0.354162 0.019379 0.040589
0.432776 0.0140383 0.0558938
0.510735 0.00622568 0.0703899
0.59086 0.000396735 0.0875715
0.669978 0 0.108751
0.746151 0 0.133623
0.806943 0 0.151247
0.834394 0 0.188403
0.849271 0 0.235279
0.863188 0 0.287816
0.870283 0.0053254 0.344488
0.873823 0.0505074 0.411688
0.880873 0.0815747 0.497963
0.894331 0.11133 0.58735
0.90457 0.204303 0.680934
0.90869 0.305989 0.765057
0.919509 0.401495 0.823682
0.927413 0.470253 0.857191
0.927886 0.474311 0.859129
0.927886 0.474311 0.859129
0.927871 0.474311 0.859129
0.0167086 0.0995956 0.0213779
0.0167239 0.100038 0.0215305
0.0168002 0.101106 0.0215152
0.0168612 0.096025 0.0177462
0.0254826 0.0865034 0.0164797
0.0437934 0.0851911 0.0175631
0.0784924 0.0928359 0.0194247
0.122683 0.100145 0.0239567
0.173251 0.101534 0.0320134
0.217594 0.0915236 0.0343023
0.261936 0.0759594 0.0330358
0.315938 0.0606699 0.032929
0.37792 0.0459907 0.0379644
0.443351 0.031632 0.049424
0.514961 0.0172274 0.0647593
0.591714 0.00483711 0.0823682
0.66688 0 0.0982376
0.738994 0 0.116304
0.801587 0 0.134005
0.828351 0 0.156588
0.845518 0 0.210513
0.862318 0 0.271275
0.87158 0.00485237 0.334371
0.877302 0.0615396 0.410437
0.883955 0.102083 0.500404
0.896284 0.128496 0.591073
0.90486 0.213306 0.684306
0.908873 0.311559 0.767483
0.919722 0.405142 0.824735
0.927596 0.47306 0.857832
0.928054 0.477073 0.859739
0.928054 0.477089 0.859739
0.928054 0.477089 0.859739
0.0193637 0.162921 0.0312505
0.0193637 0.16321 0.0315099
0.0193484 0.162509 0.0297856
0.0193027 0.15848 0.0243687
0.0233616 0.148882 0.0191196
0.0407263 0.141146 0.0201419
0.0694285 0.141634 0.0215305
0.112032 0.150835 0.0228733
0.172747 0.158648 0.0272831
0.239948 0.159991 0.0386969
0.298848 0.143694 0.0497902
0.348852 0.120516 0.0492561
0.403464 0.0974594 0.0489204
0.464408 0.0759136 0.0507057
0.532387 0.0493629 0.055375
0.60441 0.0245975 0.068513
0.675685 0.00509651 0.0875715
0.743786 0 0.104112
0.802441 0 0.120241
0.830274 0 0.134691
0.848127 0 0.18439
0.865354 0.00691234 0.256519
0.877409 0.0215915 0.329595
0.883452 0.0872969 0.412924
0.888472 0.133013 0.503029
0.898665 0.15436 0.592401
0.905379 0.229099 0.685878
0.909072 0.320394 0.769741
0.919997 0.410163 0.826078
0.92784 0.476814 0.858656
0.928298 0.480797 0.860548
0.928298 0.480797 0.860548
0.928298 0.480797 0.860548
0.0201114 0.223789 0.0423285
0.0201114 0.223957 0.0426642
0.0201114 0.221363 0.0378729
0.0201572 0.217716 0.0300145
0.0209812 0.212909 0.0218814
0.031632 0.206027 0.0204166
0.0586862 0.200259 0.0220493
0.093904 0.200534 0.0231937
0.145373 0.209537 0.0238804
0.225879 0.218799 0.0289464
0.309957 0.22295 0.044007
0.382025 0.203098 0.0675822
0.436057 0.17525 0.0703746
0.494041 0.147097 0.0713359
0.558938 0.120485 0.0697337
0.627482 0.0877852 0.0688487
0.697307 0.0433204 0.0694591
0.766506 0.00294499 0.0754253
0.824689 0 0.0969406
0.848936 0 0.119341
0.863279 0 0.166552
0.877974 0.0190585 0.247379
0.888426 0.0629282 0.331014
0.891691 0.125811 0.416373
0.893446 0.171389 0.505333
0.901198 0.186954 0.592416
0.906096 0.252811 0.684901
0.909194 0.335332 0.769924
0.920134 0.418204 0.827039
0.928161 0.482017 0.859709
0.928618 0.485924 0.86157
0.928618 0.485924 0.86157
0.928603 0.485924 0.86157
0.0234226 0.292576 0.0588235
0.0234226 0.292699 0.0591287
0.023331 0.288411 0.0513161
0.0233158 0.283543 0.0395972
0.0232853 0.280461 0.0297093
0.0246891 0.276829 0.0234684
0.0449226 0.269459 0.0224613
0.0805982 0.264042 0.0247196
0.123919 0.265293 0.0260166
0.192004 0.27805 0.0281834
0.29308 0.289342 0.0352178
0.390265 0.295979 0.0539101
0.471351 0.274937 0.090013
0.528359 0.244633 0.0975357
0.58909 0.212146 0.0983597
0.656092 0.180392 0.0976425
0.725109 0.141207 0.0898299
0.795453 0.0882582 0.0767681
0.857496 0.0317845 0.0700847
0.884672 0 0.0793011
0.886305 0 0.120363
0.895369 0.0343786 0.229191
0.899351 0.118502 0.331472
0.900465 0.17293 0.417548
0.898421 0.216556 0.506706
0.904005 0.228824 0.592966
0.907027 0.283818 0.682399
0.909178 0.356985 0.767956
0.919783 0.431983 0.826413
0.928466 0.490745 0.860365
0.928939 0.494453 0.862257
0.928954 0.494469 0.862272
0.928954 0.494484 0.862257
0.0298314 0.375784 0.0825971
0.0298161 0.375418 0.0820783
0.0296483 0.369924 0.0718242
0.0296025 0.364172 0.0572061
0.0294194 0.360815 0.0448615
0.0296788 0.360494 0.0372931
0.0366369 0.35639 0.0290379
0.068452 0.347936 0.029099
0.111513 0.341527 0.0316777
0.164782 0.343191 0.0339208
0.253239 0.357931 0.038407
0.372015 0.370825 0.0475624
0.477714 0.378256 0.0671702
0.561807 0.358984 0.113558
0.620981 0.326055 0.125032
0.683085 0.289906 0.125658
0.75082 0.250538 0.126955
0.819318 0.209934 0.113756
0.882399 0.156268 0.0912337
0.915877 0.0915847 0.0740063
0.911177 0.0601205 0.0917372
0.91342 0.076936 0.196155
0.912398 0.166903 0.319326
0.909224 0.225147 0.417868
0.903181 0.270268 0.507759
0.906279 0.282048 0.593408
0.907729 0.321263 0.678401
0.909102 0.385595 0.764858
0.918975 0.452094 0.82443
0.928466 0.505043 0.859693
0.929 0.508461 0.861677
0.928985 0.508476 0.861662
0.929 0.508492 0.861677
0.0382239 0.469963 0.114565
0.0381628 0.468605 0.111696
0.0381323 0.46305 0.0988937
0.0381476 0.457633 0.0825513
0.0379339 0.453574 0.0662547
0.0369573 0.452522 0.0547189
0.038529 0.450156 0.0463722
0.0566567 0.443992 0.0374151
0.102647 0.437278 0.0399634
0.155169 0.429969 0.0437934
0.220127 0.431235 0.0480812
0.330068 0.445045 0.0542611
0.458198 0.457298 0.0638285
0.564477 0.464195 0.0758221
0.644953 0.447013 0.124025
0.708904 0.411093 0.146014
0.769146 0.377646 0.148699
0.83415 0.340063 0.142504
0.896406 0.295155 0.134524
0.933867 0.244297 0.117678
0.930434 0.204166 0.12108
0.926528 0.181598 0.174746
0.931838 0.193301 0.282032
0.917082 0.281498 0.416754
0.908919 0.322591 0.506844
0.907713 0.342672 0.593439
0.908553 0.370336 0.674861
0.909361 0.421088 0.76022
0.918639 0.476066 0.822477
0.928542 0.522759 0.858518
0.929107 0.525841 0.860563
0.929107 0.525872 0.860578
0.929107 0.525872 0.860563
0.0530404 0.570016 0.160708
0.0525826 0.5673 0.153353
0.0517891 0.562539 0.138415
0.0512245 0.558068 0.120745
0.0509804 0.554406 0.100114
0.0499275 0.55256 0.0801251
0.0486 0.549004 0.0664836
0.0513008 0.541955 0.0551156
0.0865339 0.535805 0.0477302
0.152499 0.530159 0.0538949
0.216968 0.522347 0.0608377
0.294835 0.522362 0.0671397
0.418509 0.53257 0.0731823
0.543023 0.542199 0.0810559
0.645502 0.545113 0.0844434
0.720195 0.530297 0.121263
0.783475 0.495705 0.159121
0.841733 0.464546 0.158633
0.898512 0.436271 0.145068
0.941741 0.39176 0.142123
0.939361 0.353719 0.146914
0.935622 0.310124 0.200641
0.940978 0.278462 0.276234
0.928038 0.336812 0.407599
0.914855 0.380118 0.505562
0.908629 0.401617 0.59411
0.910491 0.42298 0.671138
0.910903 0.461341 0.75378
0.918853 0.50547 0.820584
0.928801 0.544839 0.857191
0.929397 0.54757 0.859281
0.929381 0.547585 0.859266
0.929397 0.547601 0.859281
0.0739757 0.666438 0.217563
0.073228 0.662715 0.2047
0.0725567 0.659281 0.19028
0.071931 0.656092 0.173587
0.0714733 0.653178 0.152575
0.0707866 0.650568 0.125841
0.0689403 0.646876 0.0980087
0.0683299 0.639719 0.0802777
0.0794995 0.631052 0.0653239
0.141054 0.625589 0.062974
0.224262 0.618906 0.0750286
0.300511 0.610391 0.0836957
0.38529 0.608194 0.0895857
0.506981 0.613947 0.0933394
0.621866 0.620096 0.100908
0.720394 0.620188 0.0959793
0.787152 0.608148 0.117418
0.842405 0.579736 0.152346
0.893233 0.553231 0.153048
0.935836 0.528038 0.140032
0.934066 0.49456 0.16379
0.937789 0.438209 0.21799
0.945403 0.386557 0.297093
0.940566 0.396414 0.394614
0.922194 0.441123 0.506844
0.912047 0.460822 0.594186
0.912581 0.476707 0.669596
0.913481 0.505959 0.746471
0.919707 0.540719 0.818204
0.929397 0.572717 0.855787
0.930007 0.575021 0.857893
0.930007 0.575051 0.857893
0.930007 0.575082 0.857893
0.0945907 0.754025 0.276844
0.094316 0.750713 0.26247
0.0939498 0.748211 0.249714
0.0936599 0.745785 0.234363
0.0934005 0.743114 0.21268
0.0928359 0.739925 0.183978
0.0920119 0.736156 0.147448
0.0920577 0.731212 0.111681
0.0962539 0.723186 0.092958
0.123613 0.711131 0.0780804
0.213947 0.706157 0.0852827
0.315663 0.698711 0.10042
0.395697 0.688762 0.108553
0.477226 0.6851 0.113252
0.591028 0.690089 0.11722
0.696956 0.694957 0.12604
0.790417 0.691661 0.118822
0.844587 0.682185 0.111986
0.886076 0.66154 0.120363
0.918532 0.637934 0.133715
0.926314 0.604364 0.167697
0.932631 0.556802 0.240452
0.940963 0.506172 0.321294
0.938628 0.491157 0.404288
0.929198 0.506111 0.506691
0.918044 0.52372 0.595117
0.915496 0.532723 0.671443
0.917418 0.550164 0.739483
0.922118 0.580484 0.813214
0.930755 0.605097 0.854734
0.93135 0.606989 0.856901
0.93135 0.607019 0.856901
0.93135 0.60705 0.856901
0.106233 0.82742 0.331548
0.106416 0.824735 0.318761
0.106569 0.822812 0.306386
0.1066 0.820691 0.292409
0.107103 0.81825 0.272587
0.108278 0.815381 0.245792
0.110002 0.812406 0.208972
0.11342 0.809659 0.163668
0.119585 0.806027 0.122667
0.139727 0.795346 0.102434
0.195239 0.779965 0.106493
0.302846 0.775174 0.115663
0.41648 0.770642 0.124834
0.492805 0.761578 0.133333
0.569223 0.758297 0.141207
0.672267 0.764935 0.146777
0.768978 0.76907 0.157595
0.851423 0.759045 0.162066
0.89543 0.747311 0.143084
0.914488 0.732052 0.100145
0.920409 0.69662 0.162585
0.924392 0.657053 0.249256
0.927169 0.619806 0.334981
0.926833 0.595575 0.419501
0.928435 0.583566 0.509773
0.926528 0.587457 0.598428
0.921752 0.592615 0.672129
0.922042 0.598917 0.73846
0.924666 0.620035 0.807767
0.932219 0.640879 0.853437
0.932754 0.642359 0.855848
0.932754 0.64239 0.855848
0.932754 0.64242 0.855848
0.0999771 0.884443 0.37966
0.101686 0.882414 0.368917
0.103502 0.880888 0.358648
0.10573 0.879347 0.345434
0.107485 0.877256 0.328191
0.11104 0.875105 0.304784
0.11519 0.872877 0.273335
0.121447 0.871366 0.228183
0.133364 0.870832 0.17528
0.155001 0.867826 0.12932
0.201236 0.850965 0.114565
0.285679 0.833005 0.1505
0.397742 0.830396 0.156695
0.520027 0.834257 0.146883
0.588769 0.829725 0.158785
0.663615 0.828641 0.172381
0.752041 0.839429 0.175875
0.833204 0.836912 0.19852
0.90193 0.820584 0.22237
0.935164 0.806485 0.202472
0.932815 0.7776 0.202808
0.927169 0.740764 0.287221
0.924483 0.70988 0.361654
0.922377 0.685069 0.442252
0.923064 0.668482 0.521538
0.929381 0.656672 0.601602
0.930404 0.655024 0.675654
0.928527 0.654887 0.739681
0.9281 0.663264 0.80148
0.933806 0.67747 0.85182
0.934279 0.678721 0.854475
0.934279 0.678752 0.854459
0.934264 0.678782 0.854459
0.113283 0.926635 0.42678
0.11252 0.925353 0.417411
0.111696 0.924269 0.408942
0.110948 0.923308 0.397116
0.109545 0.922347 0.380484
0.108034 0.92108 0.360082
0.107881 0.920043 0.330114
0.113924 0.918853 0.293599
0.124681 0.919326 0.23975
0.14406 0.921233 0.180453
0.200351 0.917388 0.134127
0.294804 0.891844 0.145953
0.386892 0.873579 0.213321
0.492073 0.873045 0.206775
0.615213 0.888731 0.177523
0.691859 0.892409 0.191928
0.762768 0.895445 0.200641
0.829801 0.908293 0.193942
0.887678 0.895064 0.247272
0.94284 0.874678 0.289631
0.955993 0.85594 0.282338
0.951461 0.813062 0.355734
0.943771 0.779889 0.426352
0.935164 0.758602 0.486046
0.932067 0.740322 0.552499
0.932097 0.72903 0.613581
0.936187 0.72047 0.680049
0.937407 0.715908 0.742962
0.935409 0.712612 0.800366
0.936706 0.718868 0.845319
0.937057 0.719738 0.84828
0.937057 0.719768 0.848264
0.937072 0.719814 0.84828
0.131502 0.949844 0.465126
0.130922 0.949554 0.457725
0.13022 0.94905 0.451408
0.129534 0.948562 0.443641
0.128008 0.947707 0.430045
0.126101 0.946883 0.411643
0.12549 0.947173 0.39144
0.123537 0.947738 0.357412
0.122026 0.949355 0.314702
0.121904 0.949706 0.261051
0.145953 0.951232 0.185931
0.274693 0.941497 0.14667
0.399145 0.919264 0.200992
0.483726 0.903334 0.28893
0.576318 0.905333 0.273091
0.697627 0.927596 0.228733
0.776699 0.933928 0.248142
0.83006 0.939971 0.242725
0.879652 0.948745 0.232258
0.928481 0.937697 0.303548
0.968246 0.919493 0.359213
0.973495 0.886458 0.42269
0.971191 0.847547 0.497887
0.962325 0.820096 0.552666
0.953292 0.804074 0.597726
0.945983 0.793942 0.643183
0.943206 0.786114 0.691691
0.945525 0.777768 0.748821
0.945754 0.769985 0.80354
0.943908 0.765286 0.842206
0.943984 0.765682 0.844831
0.943999 0.765743 0.844846
0.943999 0.765774 0.844831
0.130617 0.952041 0.501274
0.131518 0.952163 0.496513
0.132326 0.952239 0.492226
0.133227 0.952346 0.486931
0.134295 0.952468 0.479286
0.13434 0.952529 0.466285
0.133364 0.952544 0.447959
0.132311 0.952697 0.425391
0.12932 0.953048 0.38584
0.124926 0.953765 0.326513
0.12195 0.954376 0.275547
0.152605 0.955093 0.171557
0.365484 0.948623 0.172168
0.49836 0.937041 0.261585
0.569207 0.926482 0.370871
0.647471 0.930114 0.349676
0.764965 0.950164 0.272068
0.827451 0.956237 0.284535
0.871626 0.966445 0.277562
0.917006 0.974929 0.28481
0.957366 0.966781 0.373266
0.976806 0.95436 0.434897
0.984863 0.916426 0.54873
0.985107 0.883467 0.615686
0.976486 0.861708 0.654353
0.967239 0.850278 0.685283
0.959472 0.842985 0.719692
0.954284 0.836118 0.760021
0.954299 0.826719 0.810162
0.953674 0.817685 0.845609
0.953582 0.817456 0.847868
0.953582 0.817487 0.847868
0.953597 0.817548 0.847883
0.115404 0.95169 0.529305
0.118151 0.95172 0.526436
0.120714 0.95172 0.523827
0.123705 0.951736 0.520546
0.127474 0.951904 0.516274
0.131258 0.952209 0.509468
0.132403 0.952346 0.496559
0.132723 0.952621 0.478447
0.133074 0.952819 0.455726
0.129931 0.953292 0.401785
0.125811 0.953902 0.326833
0.146975 0.954894 0.212619
0.28217 0.952056 0.159808
0.470024 0.946441 0.206241
0.582193 0.944472 0.323339
0.645899 0.944305 0.452338
0.713359 0.949477 0.430472
0.810224 0.95584 0.289464
0.860868 0.966293 0.290043
0.899947 0.976623 0.288655
0.942657 0.981659 0.308202
0.972976 0.980743 0.406806
0.981506 0.973037 0.495872
0.988678 0.945891 0.647486
0.989868 0.918242 0.704555
0.98439 0.900435 0.733654
0.977249 0.890944 0.756954
0.968734 0.884276 0.784939
0.961654 0.876661 0.818875
0.961669 0.867231 0.851896
0.961624 0.866712 0.853956
0.961654 0.866773 0.853971
0.961639 0.866804 0.853956
0.0994583 0.956405 0.553979
0.101793 0.956588 0.552087
0.103929 0.956756 0.550347
0.1066 0.956985 0.548165
0.110185 0.957336 0.545296
0.114748 0.957778 0.541665
0.119524 0.957961 0.535409
0.123415 0.957092 0.52285
0.127657 0.955657 0.505577
0.134142 0.953246 0.483696
0.141955 0.952834 0.429221
0.157534 0.95285 0.356466
0.278904 0.951186 0.250935
0.444007 0.947234 0.230564
0.581292 0.944778 0.271641
0.651911 0.948592 0.39942
0.709621 0.953887 0.523232
0.768093 0.955825 0.492943
0.847379 0.962448 0.306996
0.889097 0.974258 0.28806
0.92549 0.980743 0.298299
0.960937 0.982834 0.32311
0.975082 0.983017 0.395132
0.984878 0.981384 0.55552
0.991119 0.968521 0.725689
0.991394 0.946166 0.774792
0.988769 0.931594 0.797726
0.982925 0.922789 0.816297
0.973861 0.915297 0.839445
0.968292 0.9084 0.860746
0.968307 0.907866 0.862669
0.968307 0.907897 0.862684
0.968307 0.907942 0.862684
0.0821393 0.968551 0.596689
0.0836042 0.968399 0.594659
0.0849317 0.968292 0.592767
0.0866255 0.968139 0.590433
0.0888991 0.967941 0.587228
0.0918593 0.967712 0.583108
0.0956436 0.967407 0.577813
0.102327 0.96614 0.569482
0.115053 0.96289 0.556085
0.131624 0.958526 0.538811
0.15111 0.953429 0.516991
0.194324 0.951995 0.467201
0.271107 0.950713 0.41239
0.420768 0.949142 0.366323
0.559213 0.94815 0.375174
0.656535 0.949218 0.418936
0.714199 0.953628 0.504082
0.764538 0.959106 0.586648
0.815198 0.961059 0.551553
0.879423 0.971222 0.32256
0.917693 0.979751 0.294987
0.948943 0.982284 0.312657
0.970443 0.983154 0.332235
0.973846 0.983154 0.374823
0.988357 0.984924 0.614649
0.994064 0.983139 0.790005
0.992645 0.965698 0.830442
0.990799 0.953445 0.849104
0.98555 0.944595 0.864454
0.97879 0.938277 0.87866
0.978485 0.937911 0.879911
0.978485 0.937911 0.879911
0.978485 0.937942 0.879927
0.0785229 0.975799 0.63711
0.0803693 0.975494 0.635187
0.0821088 0.975189 0.633387
0.0842603 0.974823 0.631159
0.0872663 0.974334 0.628077
0.0912032 0.973709 0.624079
0.096376 0.972854 0.618891
0.102403 0.971923 0.612345
0.117617 0.969589 0.603494
0.15349 0.964843 0.592218
0.205417 0.95848 0.578714
0.27187 0.951339 0.562219
0.348394 0.950881 0.536843
0.445029 0.951537 0.516503
0.561257 0.952255 0.510307
0.656657 0.953063 0.520684
0.729885 0.956054 0.555276
0.77818 0.961425 0.620127
0.819837 0.966476 0.672724
0.858671 0.968246 0.63563
0.901961 0.97586 0.446494
0.944366 0.98201 0.309773
0.965942 0.983017 0.326452
0.971237 0.983124 0.335576
0.97203 0.983093 0.346242
0.987808 0.985809 0.612192
0.996216 0.990097 0.836042
0.994247 0.977478 0.874128
0.992203 0.96585 0.890593
0.98822 0.959731 0.900191
0.987854 0.959381 0.90103
0.987869 0.959411 0.901061
0.987854 0.959411 0.901061
0.144274 0.97464 0.675715
0.148547 0.974197 0.674464
0.152636 0.973739 0.673289
0.157702 0.973205 0.671794
0.164981 0.972427 0.669749
0.17467 0.97142 0.667094
0.187686 0.970047 0.663615
0.205081 0.968246 0.659144
0.228229 0.965881 0.653422
0.262486 0.963149 0.648249
0.311009 0.959945 0.643732
0.374487 0.955871 0.638621
0.448615 0.95285 0.634913
0.515221 0.954574 0.628794
0.596094 0.956725 0.623728
0.674754 0.958892 0.625284
0.742153 0.960891 0.634516
0.797299 0.964584 0.662806
0.837507 0.969619 0.714794
0.868101 0.973434 0.750744
0.897948 0.975753 0.729229
0.925933 0.980713 0.602655
0.962249 0.982559 0.402731
0.970687 0.983169 0.331258
0.97145 0.983124 0.338308
0.971832 0.983093 0.343542
0.984237 0.986603 0.56965
0.997421 0.99321 0.876753
0.995621 0.983642 0.910552
0.993973 0.975021 0.921416
0.993759 0.974685 0.921981
0.993774 0.974716 0.922011
0.993759 0.974716 0.922011
0.309743 0.966522 0.720424
0.313832 0.966293 0.720027
0.317723 0.966079 0.719676
0.322683 0.965789 0.719188
0.329641 0.965393 0.718563
0.338918 0.964889 0.717754
0.351415 0.964187 0.716686
0.368215 0.963256 0.715343
0.390539 0.962097 0.713848
0.419898 0.960983 0.712886
0.45034 0.960327 0.712657
0.488792 0.95964 0.712795
0.539315 0.95877 0.713466
0.596643 0.958938 0.714061
0.647288 0.961624 0.713252
0.703609 0.964385 0.71339
0.762387 0.966506 0.715953
0.813367 0.968795 0.724804
0.854292 0.972274 0.747707
0.883894 0.976226 0.788159
0.90457 0.978973 0.812207
0.926131 0.981201 0.793927
0.948959 0.985718 0.709697
0.975998 0.984314 0.566567
0.975372 0.982895 0.393759
0.971588 0.983093 0.340215
0.971771 0.983093 0.342672
0.984649 0.987686 0.591211
0.998291 0.995071 0.915053
0.997055 0.98912 0.936278
0.996963 0.988632 0.936904
0.996979 0.988663 0.936934
0.996979 0.988663 0.936934
0.487709 0.965499 0.779721
0.489967 0.96553 0.77969
0.492195 0.965499 0.779614
0.495171 0.965438 0.779507
0.49929 0.965408 0.7794
0.504799 0.965347 0.779248
0.512184 0.96527 0.779065
0.522164 0.965164 0.778866
0.535576 0.965057 0.778714
0.553552 0.964904 0.778637
0.576593 0.964782 0.778866
0.601541 0.964858 0.779889
0.631724 0.965057 0.78143
0.666957 0.965438 0.78352
0.705135 0.966705 0.785046
0.744762 0.969268 0.786221
0.786343 0.971603 0.788159
0.831769 0.973465 0.791669
0.868925 0.975647 0.79913
0.897307 0.978439 0.815518
0.912673 0.98056 0.833738
0.925109 0.98204 0.839063
0.944533 0.984817 0.828199
0.965805 0.989349 0.781216
0.987366 0.988312 0.717098
0.986664 0.984024 0.57499
0.971695 0.983093 0.341466
0.982055 0.983093 0.496803
0.995865 0.992523 0.821302
0.999146 0.997208 0.9393
0.999069 0.996872 0.940505
0.9991 0.996887 0.94052
0.9991 0.996902 0.94052
0.630915 0.969894 0.835615
0.632105 0.969909 0.835599
0.633249 0.96994 0.835584
0.634775 0.970001 0.835584
0.63682 0.970062 0.835569
0.639551 0.970138 0.835554
0.643275 0.97026 0.835569
0.648203 0.970397 0.835569
0.654856 0.970611 0.83566
0.663783 0.970901 0.835798
0.675761 0.971298 0.836088
0.690913 0.971679 0.836744
0.709224 0.971893 0.838041
0.732982 0.972168 0.84004
0.761608 0.97261 0.842725
0.790066 0.973892 0.844755
0.820951 0.976104 0.846677
0.851759 0.977859 0.849088
0.885008 0.979324 0.852934
0.909133 0.981277 0.858045
0.92311 0.982742 0.862226
0.933013 0.984024 0.868055
0.944961 0.985809 0.875059
0.962051 0.988815 0.874861
0.979294 0.992538 0.852003
0.994339 0.992279 0.825681
0.99443 0.989899 0.760922
0.989502 0.987243 0.654322
0.996216 0.992493 0.824964
0.998291 0.995697 0.902129
