Apps/Android/app/src/main/assets/luts/DJI_Pocket4P_DLog2_Rec709_33.cube
TITLE "Generated by Resolve"
LUT_3D_SIZE 9
0.020325 0.0211337 0.0203861
0.0638437 0.0209201 0.021149
0.228443 0.0104524 0.0312963
0.533471 0 0.0788128
0.865507 0.00170901 0.341527
0.86566 0 0.553735
0.177096 0.0181735 0.052079
0.0201267 0.0201267 0.0201267
0.0201267 0.0201267 0.0201267
0.021561 0.0983902 0.030518
0.0598001 0.0944381 0.0231479
0.223789 0.0270848 0.0248112
0.578088 0.000411994 0.106493
0.866026 0.00276188 0.346838
0.86154 0 0.552132
0.169909 0.0180056 0.0480964
0.0201267 0.0201267 0.0201267
0.0201267 0.0201267 0.0201267
0.0234379 0.310552 0.0960861
0.028687 0.304494 0.024445
0.239841 0.312245 0.0316777
0.618143 0.16585 0.0892958
0.862913 0 0.3149
0.863645 0 0.556558
0.179706 0.0182193 0.0534676
0.0201267 0.0201267 0.0201267
0.0201267 0.0201267 0.0201267
0.0662394 0.647593 0.324193
0.0700542 0.655909 0.265568
0.124361 0.653254 0.127275
0.576471 0.665629 0.106584
0.924361 0.603525 0.124971
0.876478 0.000350958 0.549386
0.165942 0.0178683 0.0458686
0.0201267 0.0201267 0.0201267
0.0201267 0.0201267 0.0201267
0.0471809 0.907835 0.570352
0.0715496 0.906386 0.553597
0.174655 0.900984 0.528847
0.569635 0.899992 0.525979
0.887053 0.957488 0.313558
0.961364 0.902296 0.267353
0.926863 0.498924 0.85507
0.0201267 0.0201267 0.0201267
0.0201267 0.0201267 0.0201267
0.514046 0.965362 0.808698
0.535378 0.965652 0.810239
0.571115 0.966354 0.813519
0.700298 0.969909 0.829114
0.889265 0.977951 0.850004
0.976318 0.982757 0.509392
0.99057 0.985336 0.687068
0.968795 0.872465 0.965011
0.0201267 0.0201267 0.0201267
0.945022 0.991806 0.97464
0.945708 0.991882 0.974731
0.946883 0.991974 0.974899
0.951034 0.992309 0.97557
0.966201 0.993637 0.978515
0.984466 0.995987 0.979507
0.998398 0.996887 0.945174
0.998123 0.996323 0.934157
0.989944 0.972244 0.989471
0.997436 0.998688 0.999954
0.997452 0.998688 0.999954
0.997482 0.998688 0.999954
0.99765 0.998688 0.999969
0.99826 0.998718 1
0.999313 0.999283 1
0.999985 0.999969 1
1 1 0.995087
1 1 0.995346
0.999573 0.999527 1
0.999573 0.999527 1
0.999573 0.999527 1
0.999573 0.999542 1
0.999603 0.999557 1
0.99968 0.999649 1
0.999893 0.999878 1
0.999893 0.999878 1
0.999893 0.999878 1
0.0181582 0.0211032 0.0715648
0.0450752 0.0199588 0.063035
0.255863 0.0204623 0.088365
0.639948 0.01561 0.213855
0.868009 0.028336 0.392935
0.844999 0 0.551247
0.168597 0.0179599 0.0472725
0.0201267 0.0201267 0.0201267
0.0201267 0.0201267 0.0201267
0.0228885 0.0928969 0.0817731
0.0641642 0.0726787 0.0666056
0.257725 0.0336004 0.0612192
0.638773 0.0148623 0.20383
0.868162 0.0339818 0.401068
0.843137 0 0.551385
0.167559 0.0179294 0.0467231
0.0201267 0.0201267 0.0201267
0.0201267 0.0201267 0.0201267
0.0224002 0.288731 0.179171
0.0203861 0.265492 0.0996567
0.207263 0.273655 0.0332341
0.545754 0.132616 0.0722515
0.867109 0.0101167 0.363119
0.838956 0 0.550179
0.166491 0.0178836 0.046128
0.0201267 0.0201267 0.0201267
0.0201267 0.0201267 0.0201267
0.0584726 0.632303 0.368704
0.0607462 0.623301 0.310567
0.104112 0.631006 0.19411
0.556054 0.644678 0.102693
0.916442 0.564477 0.140734
0.87747 0 0.564248
0.170474 0.0179751 0.0481575
0.0201267 0.0201267 0.0201267
0.0201267 0.0201267 0.0201267
0.0390631 0.903593 0.581476
0.0604868 0.902327 0.565667
0.15967 0.89572 0.542947
0.55874 0.896193 0.538399
0.876265 0.946731 0.336599
0.962615 0.89247 0.284855
0.927474 0.508766 0.857282
0.0201267 0.0201267 0.0201267
0.0201267 0.0201267 0.0201267
0.502434 0.965347 0.808728
0.527596 0.965499 0.810193
0.562341 0.966186 0.81323
0.695979 0.969863 0.829511
0.88809 0.977981 0.851438
0.976822 0.982849 0.531624
0.991073 0.985672 0.700557
0.968978 0.873579 0.965194
0.0201267 0.0201267 0.0201267
0.944625 0.99176 0.974594
0.945251 0.991836 0.97467
0.946517 0.991958 0.974838
0.950713 0.992279 0.975509
0.965972 0.993606 0.978454
0.984421 0.995972 0.979507
0.998413 0.996902 0.945357
0.998138 0.996338 0.934585
0.989944 0.972259 0.989471
0.997421 0.998688 0.999954
0.997436 0.998688 0.999954
0.997467 0.998688 0.999954
0.99762 0.998688 0.999969
0.99826 0.998718 1
0.999313 0.999283 1
0.999985 0.999969 1
1 1 0.995087
1 1 0.995361
0.999573 0.999527 1
0.999573 0.999527 1
0.999573 0.999527 1
0.999573 0.999542 1
0.999603 0.999557 1
0.99968 0.999649 1
0.999893 0.999878 1
0.999893 0.999878 1
0.999893 0.999878 1
0.0319982 0.0229038 0.210239
0.0697642 0.0188602 0.223285
0.146334 0.0200351 0.14966
0.475105 0.0124361 0.30193
0.835523 0.0156405 0.492607
0.808118 0 0.547585
0.167483 0.0178988 0.0465248
0.0201267 0.0201267 0.0201267
0.0201267 0.0201267 0.0201267
0 0.0847181 0.190173
0.0331273 0.0249638 0.210239
0.17293 0.0236667 0.168887
0.536797 0.0276036 0.311589
0.825925 0.0108644 0.494224
0.805905 0 0.547494
0.166552 0.0178683 0.0460517
0.0201267 0.0201267 0.0201267
0.0201267 0.0201267 0.0201267
0.0229191 0.274113 0.237629
0.0215457 0.240009 0.21001
0.21709 0.233112 0.218784
0.600549 0.151339 0.227054
0.868452 0.05066 0.429007
0.808194 0 0.552468
0.172244 0.0180056 0.0490425
0.0201267 0.0201267 0.0201267
0.0201267 0.0201267 0.0201267
0.0483864 0.61886 0.433921
0.0497597 0.601099 0.390845
0.0761578 0.589517 0.296193
0.519509 0.607553 0.16025
0.898619 0.493462 0.229435
0.879438 0 0.589517
0.168154 0.0178988 0.0468147
0.0201267 0.0201267 0.0201267
0.0201267 0.0201267 0.0201267
0.0242618 0.89749 0.604791
0.0465553 0.894987 0.588083
0.12987 0.888655 0.563027
0.538811 0.889311 0.559457
0.855848 0.927291 0.388083
0.964736 0.864347 0.370275
0.928923 0.522118 0.862013
0.0201267 0.0201267 0.0201267
0.0201267 0.0201267 0.0201267
0.48246 0.965331 0.80914
0.506874 0.965469 0.810346
0.547478 0.965911 0.813016
0.688029 0.969802 0.830289
0.885939 0.978042 0.854154
0.977707 0.983001 0.572717
0.992035 0.986297 0.72607
0.969223 0.87512 0.965484
0.0201267 0.0201267 0.0201267
0.943923 0.991684 0.974487
0.94461 0.99176 0.974578
0.94583 0.991897 0.974731
0.950256 0.992233 0.975433
0.965591 0.993561 0.978347
0.98436 0.995972 0.979522
0.998413 0.996918 0.945647
0.998154 0.996384 0.935424
0.98996 0.972274 0.989471
0.997375 0.998688 0.999954
0.997406 0.998688 0.999954
0.997436 0.998688 0.999954
0.997589 0.998688 0.999969
0.998245 0.998718 1
0.999298 0.999283 1
0.999985 0.999969 1
1 1 0.995087
1 1 0.995361
0.999573 0.999527 1
0.999573 0.999527 1
0.999573 0.999527 1
0.999573 0.999542 1
0.999619 0.999557 1
0.99968 0.999649 1
0.999893 0.999878 1
0.999893 0.999878 1
0.999893 0.999878 1
0.0557565 0.0196841 0.114076
0.109239 0.0131533 0.464576
0.187762 0.0178531 0.358099
0.301274 0.0215152 0.291981
0.582925 0.0153811 0.467247
0.72343 0.00123598 0.543572
0.164446 0.017792 0.0448463
0.0201267 0.0201267 0.0201267
0.0201267 0.0201267 0.0201267
0 0.0843824 0.426032
0.0465553 0.0228122 0.438712
0.196857 0.0171817 0.458167
0.306889 0.0217746 0.293889
0.58381 0.0153506 0.468071
0.725689 0.00128176 0.546059
0.172686 0.0179751 0.0491188
0.0201267 0.0201267 0.0201267
0.0201267 0.0201267 0.0201267
0 0.214572 0.423301
0 0.173068 0.393408
0.101946 0.0508125 0.452888
0.436194 0.0787671 0.421347
0.857069 4.57771e-05 0.670878
0.720913 0.00143435 0.542824
0.161746 0.0177157 0.0434424
0.0201267 0.0201267 0.0201267
0.0201267 0.0201267 0.0201267
0.0374609 0.589471 0.533913
0.0366674 0.569741 0.515557
0.0527047 0.543847 0.489143
0.495491 0.517769 0.490471
0.907851 0.467994 0.511284
0.892943 0.0383764 0.689952
0.167971 0.0178683 0.0466316
0.0201267 0.0201267 0.0201267
0.0201267 0.0201267 0.0201267
0.00230411 0.877714 0.677455
0.0169223 0.875868 0.667979
0.0711223 0.870085 0.64892
0.458061 0.855634 0.62034
0.813748 0.87808 0.549218
0.957397 0.808988 0.55903
0.933333 0.569604 0.87747
0.0201267 0.0201267 0.0201267
0.0201267 0.0201267 0.0201267
0.432441 0.964782 0.818708
0.457343 0.964492 0.818814
0.500221 0.964324 0.819165
0.639048 0.968322 0.831495
0.876448 0.978317 0.86511
0.975494 0.986282 0.686275
0.992935 0.981567 0.78645
0.970306 0.881758 0.96672
0.0201267 0.0201267 0.0201267
0.941115 0.991379 0.974151
0.941726 0.99144 0.974212
0.942901 0.991562 0.97435
0.947982 0.99205 0.975021
0.964004 0.993378 0.97792
0.984039 0.995926 0.979583
0.998459 0.996994 0.947097
0.99826 0.996582 0.93904
0.990005 0.972412 0.989517
0.997269 0.998672 0.999954
0.997284 0.998672 0.999954
0.997314 0.998672 0.999954
0.997467 0.998688 0.999954
0.998138 0.998703 1
0.999252 0.999237 1
0.999969 0.999954 1
1 1 0.995102
1 1 0.995392
0.999573 0.999527 1
0.999573 0.999527 1
0.999573 0.999527 1
0.999573 0.999542 1
0.999619 0.999573 1
0.99968 0.999649 1
0.999893 0.999878 1
0.999893 0.999878 1
0.999893 0.999878 1
0.0484474 0.0161746 0.778927
0.130541 0 0.738415
0.242374 0.016846 0.678416
0.451759 0.0253147 0.663645
0.518685 0.0279698 0.497917
0.662989 0.00198367 0.485344
0.157565 0.0183108 0.0451057
0.0201267 0.0201267 0.0201267
0.0201267 0.0201267 0.0201267
0.000503548 0.048249 0.699825
0.0932021 0.00476081 0.701427
0.24802 0.0155032 0.710185
0.464729 0.0254368 0.712276
0.520226 0.0280003 0.498527
0.658671 0.00222782 0.480995
0.156634 0.0183108 0.0446784
0.0201267 0.0201267 0.0201267
0.0201267 0.0201267 0.0201267
0 0.143328 0.695918
0 0.0938735 0.680781
0.108156 0.00511177 0.673304
0.435142 0.0231937 0.722576
0.522225 0.0280156 0.498817
0.659098 0.0021973 0.481361
0.15555 0.0182956 0.0441749
0.0201267 0.0201267 0.0201267
0.0201267 0.0201267 0.0201267
0 0.507286 0.732586
0 0.489464 0.729397
0 0.446113 0.717906
0.352407 0.276112 0.749325
0.774136 0.344976 0.741115
0.91426 0.0441138 0.903075
0.152605 0.018265 0.0428779
0.0201267 0.0201267 0.0201267
0.0201267 0.0201267 0.0201267
0.0308995 0.841917 0.779538
0.0553902 0.838743 0.776684
0.123537 0.830854 0.770321
0.442222 0.816709 0.769055
0.774487 0.791714 0.766644
0.947494 0.787717 0.789425
0.943862 0.674525 0.913283
0.0201267 0.0201267 0.0201267
0.0201267 0.0201267 0.0201267
0.363195 0.959411 0.864103
0.392874 0.958267 0.863874
0.444633 0.95584 0.863111
0.579431 0.957641 0.869535
0.827085 0.966171 0.883375
0.964233 0.982895 0.851469
0.99028 0.957168 0.86389
0.9738 0.901656 0.970779
0.0201267 0.0201267 0.0201267
0.931731 0.990326 0.973617
0.932143 0.990372 0.973632
0.933089 0.990463 0.973678
0.937209 0.990921 0.973938
0.954681 0.992538 0.975998
0.982391 0.995727 0.979904
0.998032 0.997223 0.951446
0.998688 0.997421 0.954803
0.990188 0.972976 0.989715
0.996765 0.998657 0.999924
0.996796 0.998657 0.999924
0.996811 0.998657 0.999924
0.996963 0.998657 0.999939
0.997574 0.998688 0.999969
0.999084 0.999084 1
0.999939 0.999924 1
1 1 0.995178
1 1 0.995483
0.999573 0.999527 1
0.999573 0.999527 1
0.999573 0.999527 1
0.999588 0.999542 1
0.999619 0.999573 1
0.999695 0.999649 1
0.999893 0.999878 1
0.999893 0.999878 1
0.999893 0.999878 1
0.179858 0 0.77467
0.228916 0.00602731 0.777035
0.298009 0.0135958 0.784649
0.388678 0.0180819 0.770092
0.800732 0.0417334 0.877211
0.584298 0.0294499 0.562631
0.122637 0.0210727 0.0505684
0.0201267 0.0201267 0.0201267
0.0201267 0.0201267 0.0201267
0.19762 0 0.77528
0.244999 0.010071 0.778317
0.305669 0.0138705 0.78555
0.390677 0.0183413 0.766842
0.799527 0.0416724 0.876997
0.585794 0.0294804 0.563851
0.127123 0.02121 0.0530098
0.0201267 0.0201267 0.0201267
0.0201267 0.0201267 0.0201267
0.0524147 0.014023 0.789136
0.116732 0 0.777508
0.211475 0.00221256 0.776028
0.519875 0.0240635 0.82005
0.790387 0.0410468 0.875151
0.580194 0.0292973 0.558312
0.125475 0.0211643 0.0521401
0.0201267 0.0201267 0.0201267
0.0201267 0.0201267 0.0201267
0 0.240024 0.822385
0 0.205447 0.824079
0 0.161913 0.823301
0.227161 0.00788891 0.777264
0.733959 0.135729 0.879271
0.582498 0.0292821 0.558907
0.124285 0.0211337 0.0515602
0.0201267 0.0201267 0.0201267
0.0201267 0.0201267 0.0201267
0 0.734569 0.89012
0 0.732403 0.891173
0 0.728252 0.893309
0.0314946 0.705745 0.904509
0.646235 0.615534 0.903304
0.934356 0.701579 0.910613
0.926146 0.513344 0.919081
0.0201267 0.0201267 0.0201267
0.0201267 0.0201267 0.0201267
0.537591 0.94342 0.917983
0.552895 0.943587 0.918639
0.581628 0.943893 0.91989
0.654429 0.945876 0.924117
0.807248 0.950545 0.933913
0.941527 0.947188 0.937606
0.981399 0.952117 0.948516
0.981399 0.939696 0.980026
0.0201267 0.0201267 0.0201267
0.907408 0.987991 0.97554
0.908019 0.988052 0.97557
0.909087 0.988159 0.975631
0.913466 0.988602 0.975875
0.928237 0.990097 0.976471
0.97081 0.994141 0.979477
0.995331 0.997971 0.966628
0.998184 0.994354 0.973602
0.99086 0.97499 0.990417
0.994919 0.998825 0.998901
0.994934 0.998825 0.998901
0.994965 0.998825 0.998917
0.995071 0.998825 0.998978
0.995575 0.998764 0.999283
0.99794 0.998672 0.999985
0.999817 0.999786 1
1 1 0.995499
1 0.999954 0.996002
0.999588 0.999542 1
0.999588 0.999542 1
0.999588 0.999542 1
0.999603 0.999557 1
0.999634 0.999588 1
0.999695 0.999649 1
0.999893 0.999878 1
0.999893 0.999878 1
0.999893 0.999878 1
0.226642 0.0053254 0.776898
0.225208 0.00486763 0.776822
0.229664 0.00636301 0.777096
0.238544 0.0119631 0.752255
0.282185 0.0187533 0.622538
0.922866 0.174731 0.913054
0.0409857 0.0200656 0.0475013
0.0201267 0.0201267 0.0201267
0.0201267 0.0201267 0.0201267
0.227008 0.00538643 0.776852
0.228641 0.0059968 0.777035
0.229435 0.00637827 0.77705
0.239857 0.0123445 0.750546
0.280018 0.0187228 0.619181
0.923934 0.203128 0.913985
0.0407111 0.0200656 0.0472114
0.0201267 0.0201267 0.0201267
0.0201267 0.0201267 0.0201267
0.227543 0.00550851 0.776989
0.227649 0.00578317 0.776989
0.231556 0.00677501 0.777142
0.240024 0.012726 0.744366
0.277455 0.0186923 0.614649
0.923858 0.247669 0.91429
0.0428779 0.0200809 0.049485
0.0201267 0.0201267 0.0201267
0.0201267 0.0201267 0.0201267
0.0844282 0.00396735 0.782895
0.11957 0 0.777523
0.173449 0 0.77438
0.380346 0.0170291 0.796033
0.889448 0.0458991 0.897124
0.923934 0.386618 0.915862
0.0427253 0.0200809 0.0491646
0.0201267 0.0201267 0.0201267
0.0201267 0.0201267 0.0201267
0 0.555108 0.848356
0 0.540871 0.844541
0 0.517586 0.838575
0 0.43772 0.826032
0.5187 0.341787 0.878431
0.927489 0.625574 0.929091
0.0376287 0.0200504 0.0435798
0.0201267 0.0201267 0.0201267
0.0201267 0.0201267 0.0201267
0.559655 0.902876 0.939879
0.564981 0.902815 0.939986
0.575051 0.902693 0.940169
0.605509 0.901717 0.941375
0.681498 0.887404 0.942672
0.880659 0.872984 0.956695
0.978241 0.924239 0.974792
0.971435 0.889937 0.969635
0.0201267 0.0201267 0.0201267
0.908003 0.986893 0.982223
0.908583 0.986923 0.982269
0.909697 0.986999 0.982361
0.914168 0.987289 0.982742
0.930678 0.988357 0.984161
0.963333 0.990417 0.987076
0.988907 0.990066 0.989975
0.996551 0.992401 0.992004
0.992676 0.980575 0.992355
0.992844 0.998642 0.998566
0.992844 0.998642 0.998566
0.992859 0.998642 0.998566
0.992905 0.998657 0.998566
0.993072 0.998703 0.998566
0.993957 0.998795 0.998688
0.998535 0.998749 1
1 0.998749 0.998901
1 0.998489 0.999847
0.999634 0.999588 1
0.999634 0.999588 1
0.999634 0.999588 1
0.999649 0.999603 1
0.999664 0.999619 1
0.999741 0.999695 1
0.999893 0.999878 1
0.999893 0.999878 1
0.999893 0.999878 1
0.88333 0.0467689 0.895125
0.890883 0.0461738 0.897337
0.904723 0.0450446 0.901427
0.606455 0.0290837 0.837644
0.0201267 0.0201267 0.0201267
0.0201267 0.0201267 0.0201267
0.953948 0.774166 0.950774
0.0201267 0.0201267 0.0201267
0.0201267 0.0201267 0.0201267
0.843915 0.0452888 0.88603
0.851484 0.0459144 0.887602
0.873503 0.0466621 0.892775
0.913649 0.0443732 0.904112
0.0201267 0.0201267 0.0201267
0.0201267 0.0201267 0.0201267
0.954147 0.775708 0.950988
0.0201267 0.0201267 0.0201267
0.0201267 0.0201267 0.0201267
0.771969 0.0397345 0.87129
0.785687 0.0406653 0.874128
0.807172 0.0422827 0.878523
0.883253 0.0459297 0.895399
0.061326 0.0181277 0.37377
0.0201267 0.0201267 0.0201267
0.954543 0.778546 0.9514
0.0201267 0.0201267 0.0201267
0.0201267 0.0201267 0.0201267
0.5673 0.0267948 0.82945
0.578256 0.0274357 0.831724
0.598856 0.0286259 0.836011
0.682506 0.0339055 0.853895
0.914015 0.0443427 0.904234
0.0201267 0.0201267 0.0201267
0.9561 0.790021 0.953079
0.0201267 0.0201267 0.0201267
0.0201267 0.0201267 0.0201267
0.205188 0.11841 0.825391
0.222538 0.117006 0.823713
0.250477 0.122713 0.823743
0.345663 0.136522 0.824735
0.58613 0.158511 0.859754
0.922713 0.161532 0.913252
0.961242 0.827436 0.958785
0.0201267 0.0201267 0.0201267
0.0201267 0.0201267 0.0201267
0.032578 0.752499 0.912398
0.0354925 0.751156 0.912154
0.0406348 0.748852 0.911788
0.0778668 0.738598 0.909651
0.345251 0.713008 0.886656
0.800565 0.735332 0.932342
0.974151 0.904891 0.972595
0.0201267 0.0201267 0.0201267
0.0201267 0.0201267 0.0201267
0.92639 0.982651 0.985519
0.926528 0.982651 0.985534
0.926894 0.982635 0.98555
0.928267 0.982635 0.985656
0.934371 0.982589 0.986099
0.94168 0.979721 0.985504
0.976791 0.975998 0.988281
0.995727 0.988663 0.99556
0.992187 0.979095 0.991852
0.995392 0.998688 0.999603
0.995407 0.998688 0.999603
0.995407 0.998688 0.999603
0.995438 0.998703 0.999619
0.995544 0.998703 0.999664
0.996002 0.998703 0.999756
0.998154 0.998734 1
0.999893 0.999878 1
0.999893 0.999878 1
0.999741 0.999695 1
0.999741 0.999695 1
0.999741 0.999695 1
0.999756 0.99971 1
0.999771 0.999725 1
0.999863 0.999832 1
0.999893 0.999878 1
0.999893 0.999878 1
0.999893 0.999878 1
0.933211 0.873854 0.961898
0.933577 0.874022 0.961975
0.934188 0.874296 0.962081
0.93666 0.875456 0.962524
0.946288 0.880507 0.964446
0.970657 0.89929 0.971038
0.979461 0.9308 0.978225
0.995865 0.989013 0.995712
0.0201267 0.0201267 0.0201267
0.93312 0.874266 0.961959
0.933455 0.874418 0.96202
0.934035 0.874693 0.962127
0.936477 0.875853 0.96257
0.946227 0.880888 0.964492
0.97055 0.899702 0.971099
0.979522 0.93109 0.978286
0.99588 0.989029 0.995712
0.0201267 0.0201267 0.0201267
0.932906 0.875044 0.962051
0.933196 0.875181 0.962112
0.933791 0.875471 0.962219
0.936202 0.876616 0.962661
0.945937 0.881544 0.964553
0.970413 0.900359 0.971176
0.979644 0.93164 0.978424
0.99588 0.989059 0.995727
0.0201267 0.0201267 0.0201267
0.931991 0.878355 0.962463
0.93228 0.878492 0.962524
0.932906 0.878767 0.962631
0.935332 0.879896 0.963073
0.944884 0.884718 0.964935
0.969833 0.903044 0.971557
0.980133 0.933928 0.978973
0.995941 0.989197 0.995789
0.0201267 0.0201267 0.0201267
0.928969 0.892973 0.964584
0.929229 0.89308 0.96463
0.929732 0.893233 0.964706
0.932143 0.89395 0.965057
0.941192 0.8972 0.966522
0.967422 0.913542 0.973037
0.981994 0.942412 0.981018
0.99617 0.989746 0.996017
0.0201267 0.0201267 0.0201267
0.926207 0.932403 0.970916
0.926345 0.932479 0.970947
0.926863 0.932631 0.971054
0.928923 0.933242 0.971511
0.93753 0.935851 0.973388
0.960861 0.942199 0.977768
0.987015 0.962524 0.986374
0.996887 0.991623 0.99678
0.0201267 0.0201267 0.0201267
0.975219 0.990494 0.992981
0.975265 0.990494 0.992996
0.975326 0.990478 0.992996
0.975525 0.990448 0.992996
0.975906 0.990127 0.99292
0.976501 0.988205 0.992279
0.990021 0.988281 0.994385
0.996979 0.996704 0.998764
0.0201267 0.0201267 0.0201267
0.99823 0.998764 1
0.99823 0.998764 1
0.998245 0.998764 1
0.998245 0.998779 1
0.998306 0.998795 1
0.998535 0.998871 1
0.999344 0.999329 1
0.999893 0.999878 1
0.999893 0.999878 1
0.999893 0.999878 1
0.999893 0.999878 1
0.999893 0.999878 1
0.999893 0.999878 1
0.999893 0.999878 1
0.999893 0.999878 1
0.999893 0.999878 1
0.999893 0.999878 1
0.999893 0.999878 1
