Apps/Android/app/src/main/assets/luts/DJI_Pocket4P_DLog_Rec709_33.cube
TITLE "Generated by Resolve"
LUT_3D_SIZE 5
0.0107576 0.0107271 0.0104372
0.102998 0.00825513 0.0157015
0.686854 0.00263981 0.169848
0.877455 0.0648051 0.484016
0.927489 0.468482 0.857801
0.0234226 0.292576 0.0588235
0.123919 0.265293 0.0260166
0.725109 0.141207 0.0898299
0.898421 0.216556 0.506706
0.928954 0.494484 0.862257
0.113283 0.926635 0.42678
0.124681 0.919326 0.23975
0.762768 0.895445 0.200641
0.932067 0.740322 0.552499
0.937072 0.719814 0.84828
0.309743 0.966522 0.720424
0.390539 0.962097 0.713848
0.762387 0.966506 0.715953
0.975372 0.982895 0.393759
0.996979 0.988663 0.936934
0.875929 0.98587 0.942519
0.880354 0.986114 0.942824
0.918975 0.987823 0.947372
0.980972 0.994919 0.961196
0.999695 0.998428 0.954803
0.0259403 0.0111543 0.16434
0.232715 0.0171969 0.273625
0.742687 0.0470283 0.368719
0.885298 0 0.645548
0.928527 0.42565 0.874357
0.0245365 0.309468 0.257084
0.248463 0.257023 0.241611
0.762219 0.14609 0.297139
0.892866 0.114855 0.566964
0.92932 0.496742 0.863996
0.0865034 0.91165 0.502586
0.147173 0.876493 0.351949
0.739879 0.856336 0.274189
0.931197 0.72517 0.601022
0.938262 0.716228 0.857816
0.299199 0.967254 0.718959
0.388022 0.96228 0.712459
0.778241 0.967468 0.723781
0.976669 0.982773 0.410849
0.996796 0.987884 0.938628
0.875578 0.985809 0.942321
0.880034 0.986084 0.942626
0.918776 0.987793 0.947188
0.981033 0.994934 0.961288
0.999695 0.998444 0.955276
0 0.108003 0.780789
0.325963 0.018555 0.712352
0.791196 0.0488899 0.801404
0.915312 0.0432593 0.897887
0.924025 0.192813 0.914031
0 0.252827 0.696513
0.212543 0.0372625 0.685817
0.798886 0.196307 0.812146
0.917082 0.0416114 0.886976
0.924224 0.259617 0.914717
0.00595102 0.80557 0.725887
0.0683452 0.791394 0.715679
0.748119 0.760113 0.737316
0.928847 0.640543 0.836133
0.943435 0.663432 0.908629
0.328191 0.969177 0.778759
0.473121 0.965423 0.784924
0.827527 0.976318 0.835447
0.990097 0.986496 0.669917
0.995041 0.982101 0.949554
0.873365 0.985702 0.942092
0.877791 0.985946 0.942382
0.917067 0.987686 0.946792
0.981826 0.995163 0.962661
0.999893 0.998764 0.96051
0 0.590127 0.856657
0 0.426856 0.823529
0.828183 0.100389 0.890883
0.938567 0.648707 0.933303
0.915709 0.0714733 0.906325
0 0.619577 0.861601
0 0.487953 0.83241
0.82414 0.227359 0.900298
0.940047 0.660822 0.934966
0.920119 0.118822 0.91133
0 0.733074 0.901106
0.126146 0.720378 0.904173
0.748409 0.677562 0.922332
0.953552 0.76582 0.95024
0.927169 0.525521 0.920409
0.654169 0.958068 0.938094
0.679683 0.959045 0.940368
0.820142 0.966201 0.955276
0.975647 0.979522 0.978439
0.986053 0.958068 0.977798
0.85243 0.984497 0.960021
0.856718 0.984817 0.960372
0.898543 0.988037 0.964126
0.985183 0.996765 0.978408
1 1 0.984344
0 0.889494 0.923506
0 0.789532 0.897459
0.726833 0.54902 0.906432
0.931273 0.578958 0.925048
0.970687 0.881285 0.968826
0 0.891081 0.923919
0 0.789837 0.897536
0.726726 0.579065 0.909422
0.932937 0.596445 0.926909
0.970947 0.882658 0.969085
0 0.816266 0.89897
0 0.788708 0.897581
0.749844 0.756024 0.927489
0.948333 0.726864 0.944335
0.973404 0.89659 0.971679
0.834714 0.95346 0.969436
0.840528 0.953658 0.969924
0.888548 0.95491 0.974151
0.967422 0.9552 0.982193
0.987884 0.962966 0.987228
0.945617 0.991684 0.989273
0.94609 0.991745 0.989334
0.951202 0.992447 0.990112
0.98088 0.996994 0.995514
0.999481 0.99942 1
