Apps/Android/app/src/main/assets/luts/DJI_Pocket4P_DLog2_Rec709_33.cube
TITLE "Generated by Resolve"
LUT_3D_SIZE 5
0.020325 0.0211337 0.0203861
0.228443 0.0104524 0.0312963
0.865507 0.00170901 0.341527
0.177096 0.0181735 0.052079
0.0201267 0.0201267 0.0201267
0.0234379 0.310552 0.0960861
0.239841 0.312245 0.0316777
0.862913 0 0.3149
0.179706 0.0182193 0.0534676
0.0201267 0.0201267 0.0201267
0.0471809 0.907835 0.570352
0.174655 0.900984 0.528847
0.887053 0.957488 0.313558
0.926863 0.498924 0.85507
0.0201267 0.0201267 0.0201267
0.945022 0.991806 0.97464
0.946883 0.991974 0.974899
0.966201 0.993637 0.978515
0.998398 0.996887 0.945174
0.989944 0.972244 0.989471
0.999573 0.999527 1
0.999573 0.999527 1
0.999603 0.999557 1
0.999893 0.999878 1
0.999893 0.999878 1
0.0319982 0.0229038 0.210239
0.146334 0.0200351 0.14966
0.835523 0.0156405 0.492607
0.167483 0.0178988 0.0465248
0.0201267 0.0201267 0.0201267
0.0229191 0.274113 0.237629
0.21709 0.233112 0.218784
0.868452 0.05066 0.429007
0.172244 0.0180056 0.0490425
0.0201267 0.0201267 0.0201267
0.0242618 0.89749 0.604791
0.12987 0.888655 0.563027
0.855848 0.927291 0.388083
0.928923 0.522118 0.862013
0.0201267 0.0201267 0.0201267
0.943923 0.991684 0.974487
0.94583 0.991897 0.974731
0.965591 0.993561 0.978347
0.998413 0.996918 0.945647
0.98996 0.972274 0.989471
0.999573 0.999527 1
0.999573 0.999527 1
0.999619 0.999557 1
0.999893 0.999878 1
0.999893 0.999878 1
0.0484474 0.0161746 0.778927
0.242374 0.016846 0.678416
0.518685 0.0279698 0.497917
0.157565 0.0183108 0.0451057
0.0201267 0.0201267 0.0201267
0 0.143328 0.695918
0.108156 0.00511177 0.673304
0.522225 0.0280156 0.498817
0.15555 0.0182956 0.0441749
0.0201267 0.0201267 0.0201267
0.0308995 0.841917 0.779538
0.123537 0.830854 0.770321
0.774487 0.791714 0.766644
0.943862 0.674525 0.913283
0.0201267 0.0201267 0.0201267
0.931731 0.990326 0.973617
0.933089 0.990463 0.973678
0.954681 0.992538 0.975998
0.998032 0.997223 0.951446
0.990188 0.972976 0.989715
0.999573 0.999527 1
0.999573 0.999527 1
0.999619 0.999573 1
0.999893 0.999878 1
0.999893 0.999878 1
0.226642 0.0053254 0.776898
0.229664 0.00636301 0.777096
0.282185 0.0187533 0.622538
0.0409857 0.0200656 0.0475013
0.0201267 0.0201267 0.0201267
0.227543 0.00550851 0.776989
0.231556 0.00677501 0.777142
0.277455 0.0186923 0.614649
0.0428779 0.0200809 0.049485
0.0201267 0.0201267 0.0201267
0 0.555108 0.848356
0 0.517586 0.838575
0.5187 0.341787 0.878431
0.0376287 0.0200504 0.0435798
0.0201267 0.0201267 0.0201267
0.908003 0.986893 0.982223
0.909697 0.986999 0.982361
0.930678 0.988357 0.984161
0.988907 0.990066 0.989975
0.992676 0.980575 0.992355
0.999634 0.999588 1
0.999634 0.999588 1
0.999664 0.999619 1
0.999893 0.999878 1
0.999893 0.999878 1
0.933211 0.873854 0.961898
0.934188 0.874296 0.962081
0.946288 0.880507 0.964446
0.979461 0.9308 0.978225
0.0201267 0.0201267 0.0201267
0.932906 0.875044 0.962051
0.933791 0.875471 0.962219
0.945937 0.881544 0.964553
0.979644 0.93164 0.978424
0.0201267 0.0201267 0.0201267
0.928969 0.892973 0.964584
0.929732 0.893233 0.964706
0.941192 0.8972 0.966522
0.981994 0.942412 0.981018
0.0201267 0.0201267 0.0201267
0.975219 0.990494 0.992981
0.975326 0.990478 0.992996
0.975906 0.990127 0.99292
0.990021 0.988281 0.994385
0.0201267 0.0201267 0.0201267
0.999893 0.999878 1
0.999893 0.999878 1
0.999893 0.999878 1
0.999893 0.999878 1
0.999893 0.999878 1
