Apps/Android/app/src/main/assets/luts/DJI_Official_Pocket4P_DLog2_Rec709_33.cube
# DaVinci Resolve Cube (3D LUT).
#
#Generated by LUT Editor.
#Not-Clipped.
#
LUT_3D_SIZE 5
0 0 0
0.183474 0.00808728 0.0390631
0.945953 0.0352941 0.165713
1 0.733669 0.677897
1 0.99884 0.998505
0.00468452 0.184451 0.0854963
0.292805 0.314488 0.00610361
0.961028 0.039765 0.130358
0.999985 0.694759 0.633417
1 0.99884 0.998505
0.000122072 0.838026 0.316701
0 0.852079 0.323644
0.818814 0.869551 0.00231937
1 0.758434 0.702022
1 0.998856 0.998505
0.873549 1 0.85893
0.872999 1 0.858228
0.885756 0.999969 0.869459
0.989441 0.998917 0.928649
1 0.998947 0.998611
0.999496 1 0.999374
0.999496 1 0.999374
0.999512 1 0.999405
0.999542 1 0.999435
0.999954 1 0.99968
0.00222782 0.0375372 0.100237
0.29546 0.0194095 0.253559
0.966125 0.0582895 0.294469
0.999985 0.729198 0.674144
1 0.99884 0.998505
0.00480659 0.257725 0.245426
0.298741 0.298741 0.298741
0.973434 0.0941939 0.264546
0.999985 0.692638 0.632456
1 0.998825 0.998474
0.000808728 0.843534 0.366537
0 0.854841 0.366705
0.820172 0.867933 0.0731212
1 0.757671 0.701854
1 0.99884 0.998505
0.873121 1 0.858686
0.871458 1 0.856855
0.885634 0.999969 0.86949
0.98941 0.998901 0.928145
1 0.998932 0.998611
0.999496 1 0.999374
0.999481 1 0.999359
0.999512 1 0.999405
0.999542 1 0.99942
0.999954 1 0.99968
0.00756847 0.340734 0.724361
0.0317998 0.303838 0.86566
0.949981 0.0560311 0.820661
1 0.745693 0.73228
1 0.99884 0.998505
0.007187 0.343481 0.72549
0.0273136 0.298299 0.832761
0.920958 0.0331426 0.793606
1 0.705486 0.691463
1 0.998764 0.998413
0.370947 0.825711 0.79205
0.386328 0.823453 0.791089
0.802426 0.802426 0.802426
0.999969 0.763272 0.737179
1 0.99884 0.998505
0.889235 0.999939 0.879683
0.887709 0.999939 0.878065
0.897688 0.999924 0.887114
0.991623 0.99794 0.927108
1 0.998947 0.998627
0.999512 1 0.99939
0.999496 1 0.999374
0.999512 1 0.99939
0.999542 1 0.999435
0.999954 1 0.99968
0.688823 0.832044 0.999939
0.687175 0.831113 0.999939
0.717617 0.841245 0.999954
1 0.869688 0.951812
1 0.998535 0.998398
0.663539 0.817426 0.999924
0.636271 0.801633 0.999908
0.655558 0.803555 0.999954
1 0.829786 0.939101
1 0.998383 0.998184
0.68455 0.829602 0.999939
0.664454 0.81796 0.999924
0.676753 0.8168 0.999954
1 0.841123 0.942504
1 0.99855 0.998367
0.937209 0.991257 0.984771
0.935332 0.990997 0.98436
0.940505 0.991272 0.985321
0.98645 0.98645 0.98645
1 0.998764 0.998581
0.999557 1 0.999451
0.999542 1 0.999435
0.999557 1 0.999451
0.999557 1 0.999466
0.999954 1 0.999695
0.998016 0.999023 1
0.998016 0.999023 1
0.998016 0.999023 1
0.998199 0.999084 1
1 0.999374 0.999756
0.998016 0.999023 1
0.998016 0.999023 1
0.99794 0.998993 1
0.998047 0.999008 1
1 0.999313 0.999741
0.998016 0.999023 1
0.998016 0.999023 1
0.998016 0.999023 1
0.998169 0.999069 1
1 0.999359 0.999756
0.998032 0.999023 1
0.998016 0.999023 1
0.998032 0.999023 1
0.998184 0.999084 1
1 0.999359 0.999756
0.999527 1 0.999954
0.999512 1 0.999954
0.999527 1 0.999954
0.999542 1 0.999969
1 1 1
