Apps/Android/app/src/main/assets/luts/DJI_Pocket4P_DLog_Rec709_33.cube
TITLE "Generated by Resolve"
LUT_3D_SIZE 9
0.0107576 0.0107271 0.0104372
0.0282292 0.0104219 0.0108339
0.102998 0.00825513 0.0157015
0.348653 0.0109712 0.0634318
0.686854 0.00263981 0.169848
0.854566 0 0.266377
0.877455 0.0648051 0.484016
0.919066 0.393744 0.821378
0.927489 0.468482 0.857801
0.0136721 0.0531472 0.0153811
0.0269627 0.0470436 0.0140841
0.138369 0.0437476 0.0205539
0.354162 0.019379 0.040589
0.669978 0 0.108751
0.849271 0 0.235279
0.880873 0.0815747 0.497963
0.919509 0.401495 0.823682
0.927871 0.474311 0.859129
0.0234226 0.292576 0.0588235
0.0232853 0.280461 0.0297093
0.123919 0.265293 0.0260166
0.471351 0.274937 0.090013
0.725109 0.141207 0.0898299
0.886305 0 0.120363
0.898421 0.216556 0.506706
0.919783 0.431983 0.826413
0.928954 0.494484 0.862257
0.0739757 0.666438 0.217563
0.0714733 0.653178 0.152575
0.0794995 0.631052 0.0653239
0.38529 0.608194 0.0895857
0.787152 0.608148 0.117418
0.934066 0.49456 0.16379
0.922194 0.441123 0.506844
0.919707 0.540719 0.818204
0.930007 0.575082 0.857893
0.113283 0.926635 0.42678
0.109545 0.922347 0.380484
0.124681 0.919326 0.23975
0.386892 0.873579 0.213321
0.762768 0.895445 0.200641
0.955993 0.85594 0.282338
0.932067 0.740322 0.552499
0.935409 0.712612 0.800366
0.937072 0.719814 0.84828
0.0994583 0.956405 0.553979
0.110185 0.957336 0.545296
0.127657 0.955657 0.505577
0.278904 0.951186 0.250935
0.709621 0.953887 0.523232
0.92549 0.980743 0.298299
0.991119 0.968521 0.725689
0.973861 0.915297 0.839445
0.968307 0.907942 0.862684
0.309743 0.966522 0.720424
0.329641 0.965393 0.718563
0.390539 0.962097 0.713848
0.539315 0.95877 0.713466
0.762387 0.966506 0.715953
0.90457 0.978973 0.812207
0.975372 0.982895 0.393759
0.998291 0.995071 0.915053
0.996979 0.988663 0.936934
0.826902 0.982193 0.921324
0.82858 0.982284 0.92137
0.8336 0.982544 0.921538
0.850126 0.983459 0.922393
0.894575 0.984466 0.92752
0.94992 0.989242 0.934691
0.976867 0.993576 0.947021
0.999069 0.997208 0.932631
0.999298 0.997696 0.942565
0.875929 0.98587 0.942519
0.876982 0.985916 0.942565
0.880354 0.986114 0.942824
0.891432 0.986755 0.943679
0.918975 0.987823 0.947372
0.95906 0.991501 0.953063
0.980972 0.994919 0.961196
0.99968 0.998505 0.956847
0.999695 0.998428 0.954803
0.0120241 0.0105745 0.0377813
0.0413977 0.0102235 0.0547951
0.148623 0.0150454 0.0640574
0.42681 0.0244144 0.152499
0.721523 0.00607309 0.252094
0.867445 0.0158236 0.371923
0.876005 0.027451 0.52166
0.919127 0.395178 0.821775
0.927581 0.469566 0.858061
0.0151369 0.0612192 0.0504311
0.0514382 0.0535439 0.0497292
0.18497 0.0399634 0.0566415
0.41503 0.0223697 0.0959487
0.701885 0.00445563 0.192081
0.86096 0 0.288746
0.880964 0.0793011 0.503319
0.919585 0.402914 0.824094
0.927962 0.47541 0.859358
0.0230869 0.309331 0.115663
0.0239719 0.293202 0.0621195
0.176135 0.2757 0.0312657
0.489616 0.248157 0.104326
0.732601 0.117769 0.0948959
0.889357 0.016556 0.215915
0.89691 0.193683 0.524376
0.920455 0.429557 0.829023
0.929091 0.49395 0.863111
0.0773175 0.683085 0.279789
0.0692454 0.64863 0.198642
0.101701 0.622995 0.101137
0.434821 0.606195 0.0914168
0.790768 0.595544 0.147601
0.935882 0.462379 0.205982
0.918578 0.438437 0.524514
0.920134 0.537728 0.821744
0.930388 0.572946 0.859861
0.111025 0.922698 0.44329
0.106172 0.915801 0.390784
0.126955 0.910369 0.234913
0.405951 0.863081 0.26981
0.770367 0.891615 0.201404
0.957473 0.84535 0.327749
0.931853 0.736233 0.565805
0.935103 0.711101 0.803784
0.937346 0.718898 0.85066
0.0987411 0.956481 0.554818
0.109743 0.957504 0.546029
0.12752 0.955886 0.504784
0.317388 0.950362 0.25037
0.715999 0.954757 0.549615
0.927062 0.980865 0.299107
0.99118 0.966842 0.733471
0.973251 0.914809 0.840848
0.968109 0.907454 0.863767
0.306996 0.96672 0.71986
0.327123 0.965576 0.717983
0.388632 0.962158 0.713085
0.539834 0.958694 0.712764
0.766278 0.966705 0.717311
0.90486 0.979065 0.813642
0.975738 0.982895 0.398627
0.998306 0.995041 0.916045
0.996918 0.988464 0.937362
0.826535 0.982177 0.921172
0.828367 0.982254 0.921233
0.833402 0.982528 0.921401
0.849912 0.983429 0.92224
0.894499 0.984466 0.927428
0.94992 0.989242 0.934661
0.976883 0.993591 0.947082
0.999084 0.997223 0.93283
0.999313 0.997711 0.942794
0.875837 0.98584 0.942458
0.876905 0.985901 0.942519
0.880262 0.986114 0.942763
0.89134 0.986755 0.943633
0.918914 0.987808 0.947326
0.95906 0.991516 0.953048
0.980972 0.994919 0.961212
0.999695 0.998535 0.956939
0.999695 0.998413 0.95491
0.0259403 0.0111543 0.16434
0.0716564 0.0113222 0.187518
0.232715 0.0171969 0.273625
0.465766 0.0174258 0.287846
0.742687 0.0470283 0.368719
0.870741 0.0422065 0.466346
0.885298 0 0.645548
0.92781 0.295857 0.86421
0.928527 0.42565 0.874357
0 0.0739757 0.180362
0.0410773 0.0249027 0.175692
0.227802 0.0337682 0.266072
0.460929 0.0264286 0.26511
0.738155 0.0403296 0.345495
0.869322 0.0487678 0.446296
0.883741 0 0.633188
0.924941 0.372137 0.843259
0.928481 0.471412 0.862959
0.0245365 0.309468 0.257084
0.0258335 0.271916 0.227207
0.248463 0.257023 0.241611
0.505531 0.218692 0.257023
0.762219 0.14609 0.297139
0.879866 0.0353094 0.364431
0.892866 0.114855 0.566964
0.921035 0.431785 0.831312
0.92932 0.496742 0.863996
0.0655375 0.678111 0.403937
0.0619516 0.63563 0.344076
0.117037 0.600244 0.201526
0.461845 0.57499 0.159243
0.787411 0.546731 0.291524
0.945296 0.390509 0.322545
0.910307 0.421332 0.575265
0.921859 0.528634 0.831128
0.931228 0.566217 0.865232
0.0865034 0.91165 0.502586
0.0919509 0.895048 0.465904
0.147173 0.876493 0.351949
0.437919 0.848447 0.363256
0.739879 0.856336 0.274189
0.959167 0.821973 0.433951
0.931197 0.72517 0.601022
0.934249 0.706676 0.813993
0.938262 0.716228 0.857816
0.0949721 0.958755 0.562921
0.106126 0.960266 0.554299
0.129259 0.955535 0.50811
0.402228 0.948882 0.308766
0.730144 0.955398 0.608865
0.931319 0.981201 0.301366
0.991424 0.96173 0.757168
0.97142 0.913329 0.845167
0.967391 0.905928 0.867079
0.299199 0.967254 0.718959
0.320699 0.966033 0.717128
0.388022 0.96228 0.712459
0.55465 0.958572 0.714336
0.778241 0.967468 0.723781
0.905623 0.979278 0.817578
0.976669 0.982773 0.410849
0.998306 0.994934 0.919066
0.996796 0.987884 0.938628
0.825483 0.982101 0.920729
0.827482 0.982193 0.920836
0.832792 0.982467 0.921035
0.849348 0.983383 0.921889
0.89424 0.98439 0.927092
0.949889 0.989227 0.934554
0.976913 0.993591 0.94728
0.999084 0.997223 0.93341
0.999329 0.997757 0.943435
0.875578 0.985809 0.942321
0.876661 0.985885 0.942382
0.880034 0.986084 0.942626
0.891142 0.986755 0.943526
0.918776 0.987793 0.947188
0.95903 0.991516 0.952987
0.981033 0.994934 0.961288
0.999695 0.99855 0.957198
0.999695 0.998444 0.955276
0.0427863 0.0158236 0.428641
0.117815 0.0125734 0.436194
0.280003 0.0187533 0.496147
0.505852 0.0275273 0.551812
0.77641 0 0.568276
0.886336 0 0.653452
0.908186 0.0172427 0.778027
0.927062 0.211048 0.889586
0.926223 0.307286 0.904753
0 0.08748 0.448234
0.0567178 0.012665 0.404471
0.25156 0.017792 0.476417
0.494697 0.0290379 0.53962
0.771267 0 0.555642
0.884978 0 0.642756
0.906386 0.0137636 0.769574
0.927382 0.231495 0.888975
0.926345 0.322377 0.904067
0 0.289143 0.460349
0 0.243366 0.446448
0.224399 0.173007 0.499916
0.516823 0.186007 0.557946
0.758831 0.00923171 0.5131
0.880644 0.000244144 0.601038
0.899565 0.00582895 0.739239
0.927947 0.289189 0.886412
0.926909 0.366125 0.901701
0.03888 0.597406 0.526833
0.0380255 0.579416 0.511467
0.11754 0.557641 0.491966
0.505882 0.519478 0.493263
0.781811 0.503182 0.518776
0.908309 0.387915 0.569787
0.907362 0.318441 0.70251
0.927565 0.502007 0.856031
0.932616 0.547997 0.87837
0.018555 0.89247 0.609796
0.0207523 0.879942 0.5906
0.0531319 0.854536 0.541009
0.4448 0.820691 0.483528
0.723293 0.809247 0.471519
0.942718 0.783673 0.599924
0.934874 0.694224 0.694133
0.934569 0.695125 0.845136
0.941268 0.708476 0.877226
0.0675364 0.964721 0.609949
0.0739452 0.969955 0.610132
0.111391 0.967041 0.581186
0.510231 0.951522 0.576516
0.747997 0.949126 0.676722
0.920501 0.976181 0.615885
0.991516 0.948425 0.801099
0.968307 0.90782 0.858366
0.967636 0.898833 0.87985
0.332753 0.965713 0.726757
0.362524 0.964248 0.726101
0.446998 0.961746 0.728161
0.622583 0.961105 0.740993
0.809613 0.97055 0.758389
0.907042 0.979721 0.825803
0.981643 0.983063 0.48864
0.998322 0.994583 0.929046
0.996414 0.986206 0.942092
0.822858 0.981918 0.919768
0.824918 0.982025 0.919875
0.831296 0.982345 0.920211
0.848402 0.983276 0.921111
0.893767 0.984314 0.926482
0.949844 0.989197 0.934325
0.977081 0.993652 0.948013
0.999146 0.997345 0.935393
0.999374 0.997864 0.945495
0.874891 0.985763 0.942016
0.875975 0.985824 0.942092
0.879347 0.986038 0.942321
0.890455 0.986679 0.943191
0.918349 0.987732 0.946899
0.958907 0.99147 0.952819
0.981216 0.994995 0.961593
0.99971 0.998596 0.958083
0.999741 0.99852 0.956527
0 0.108003 0.780789
0.0497444 0.0197604 0.720806
0.325963 0.018555 0.712352
0.533898 0.0292363 0.742947
0.791196 0.0488899 0.801404
0.918944 0.0385748 0.857618
0.915312 0.0432593 0.897887
0.917082 0.0811475 0.90724
0.924025 0.192813 0.914031
0 0.156741 0.760845
0.00947585 0.0505989 0.727749
0.301228 0.0177768 0.702998
0.521263 0.0286107 0.734432
0.787625 0.0650645 0.798886
0.919112 0.038117 0.853315
0.915663 0.0429389 0.896147
0.918486 0.0939345 0.908507
0.924376 0.210254 0.914382
0 0.252827 0.696513
0 0.196429 0.699626
0.212543 0.0372625 0.685817
0.484657 0.0525826 0.718746
0.798886 0.196307 0.812146
0.919188 0.0368811 0.836957
0.917082 0.0416114 0.886976
0.922118 0.157015 0.910994
0.924224 0.259617 0.914717
0 0.549813 0.712917
0 0.530266 0.708675
0 0.513603 0.747295
0.490013 0.436576 0.753704
0.772015 0.470329 0.793591
0.918486 0.269459 0.811048
0.925765 0.152239 0.865476
0.925002 0.335027 0.911116
0.924529 0.396719 0.91577
0.00595102 0.80557 0.725887
0.0140383 0.800412 0.721767
0.0683452 0.791394 0.715679
0.450431 0.780438 0.726375
0.748119 0.760113 0.737316
0.938277 0.745174 0.767102
0.928847 0.640543 0.836133
0.94197 0.651331 0.896361
0.943435 0.663432 0.908629
0.025452 0.953567 0.705318
0.0253605 0.952651 0.701274
0.0276341 0.957946 0.71191
0.247974 0.942397 0.705486
0.745083 0.935424 0.752056
0.905699 0.94551 0.766155
0.975937 0.92517 0.855222
0.966781 0.886839 0.894102
0.965362 0.879164 0.906737
0.328191 0.969177 0.778759
0.367239 0.96791 0.779614
0.473121 0.965423 0.784924
0.662806 0.968261 0.80972
0.827527 0.976318 0.835447
0.911269 0.980865 0.845685
0.990097 0.986496 0.669917
0.996994 0.988571 0.94406
0.995041 0.982101 0.949554
0.81973 0.981781 0.920104
0.821668 0.981857 0.920165
0.82768 0.982177 0.920409
0.845121 0.983078 0.921218
0.890913 0.984253 0.926177
0.949691 0.989227 0.934813
0.977676 0.993851 0.950332
0.999283 0.997635 0.941131
0.999557 0.998169 0.950576
0.873365 0.985702 0.942092
0.874434 0.985733 0.942153
0.877791 0.985946 0.942382
0.888777 0.986587 0.943206
0.917067 0.987686 0.946792
0.958495 0.99147 0.953002
0.981826 0.995163 0.962661
0.999802 0.998779 0.960937
0.999893 0.998764 0.96051
0 0.205966 0.823911
0 0.189822 0.824567
0.250294 0.010071 0.779873
0.576333 0.0273442 0.831418
0.805402 0.042298 0.878309
0.924086 0.330251 0.915496
0.914153 0.0445869 0.904372
0.914168 0.0444648 0.904387
0.913817 0.0457618 0.904051
0 0.241688 0.82237
0 0.200687 0.824521
0.22005 0.0077821 0.778134
0.561929 0.0264897 0.828367
0.794186 0.0431525 0.876371
0.924178 0.347402 0.915755
0.914076 0.044892 0.904295
0.914168 0.0445411 0.904372
0.913725 0.046067 0.90396
0 0.34995 0.824125
0 0.274128 0.822873
0.117037 0.0383459 0.79855
0.509483 0.0283055 0.820188
0.775158 0.0917525 0.880873
0.924575 0.395163 0.916259
0.913588 0.0461128 0.903838
0.913848 0.045655 0.904067
0.91342 0.0479286 0.903655
0 0.51931 0.838437
0 0.497139 0.837476
0.0196078 0.45449 0.902083
0.504463 0.35523 0.878141
0.749325 0.355291 0.895689
0.926833 0.517021 0.917922
0.923858 0.20647 0.91397
0.920806 0.134356 0.911376
0.923476 0.202152 0.914122
0 0.735637 0.864317
0 0.733776 0.866911
0.0749523 0.724056 0.866407
0.446693 0.711192 0.851591
0.72221 0.694774 0.889784
0.92108 0.725048 0.916838
0.932998 0.582635 0.916106
0.926986 0.521096 0.92015
0.927901 0.537087 0.921218
0.163485 0.913512 0.856397
0.191867 0.91162 0.855817
0.28365 0.906554 0.855024
0.513542 0.906477 0.867018
0.758114 0.917311 0.892592
0.914427 0.919539 0.909255
0.967971 0.892256 0.919585
0.966903 0.851179 0.942382
0.96669 0.847242 0.94667
0.0573434 0.980056 0.857343
0.0612802 0.980346 0.856931
0.0833448 0.980148 0.854871
0.247349 0.971237 0.844663
0.699825 0.973602 0.879271
0.921996 0.982849 0.911498
0.98555 0.994461 0.920424
0.990158 0.978546 0.958404
0.987411 0.974075 0.959655
0.800305 0.980743 0.927611
0.802609 0.980896 0.927733
0.809735 0.981384 0.928176
0.829145 0.982681 0.929381
0.879011 0.985397 0.933776
0.947204 0.989822 0.943954
0.979812 0.994598 0.958999
0.999725 0.998474 0.955642
1 0.998993 0.96408
0.869108 0.985656 0.946395
0.870344 0.985748 0.946471
0.873945 0.985992 0.946761
0.884855 0.986618 0.947616
0.913725 0.988312 0.950744
0.957656 0.99176 0.957565
0.983642 0.995727 0.966995
1 0.999283 0.96849
1 0.999313 0.968826
0 0.590127 0.856657
0 0.549767 0.847242
0 0.426856 0.823529
0.466728 0.119753 0.836179
0.828183 0.100389 0.890883
0.923964 0.298894 0.915022
0.938567 0.648707 0.933303
0.923476 0.212451 0.913985
0.915709 0.0714733 0.906325
0 0.608911 0.860166
0 0.557107 0.849165
0 0.443397 0.823224
0.469398 0.158404 0.844068
0.828351 0.13434 0.894301
0.923995 0.316152 0.915282
0.938933 0.65182 0.9337
0.923842 0.22594 0.914305
0.916838 0.0829786 0.907622
0 0.619577 0.861601
0 0.585702 0.85565
0 0.487953 0.83241
0.47747 0.265614 0.865156
0.82414 0.227359 0.900298
0.924102 0.366217 0.91606
0.940047 0.660822 0.934966
0.923888 0.26276 0.914748
0.920119 0.118822 0.91133
0 0.65211 0.865705
0 0.632212 0.863264
0 0.583261 0.859968
0.484016 0.473426 0.887953
0.789334 0.426566 0.901946
0.925368 0.487343 0.918486
0.943557 0.689189 0.938933
0.924224 0.36997 0.916182
0.923568 0.258228 0.914412
0 0.733074 0.901106
0 0.732906 0.90808
0.126146 0.720378 0.904173
0.485298 0.707988 0.885084
0.748409 0.677562 0.922332
0.907805 0.672694 0.933883
0.953552 0.76582 0.95024
0.930831 0.573526 0.924514
0.927169 0.525521 0.920409
0.400443 0.861906 0.922545
0.418235 0.862089 0.922789
0.470344 0.862699 0.923552
0.591043 0.864881 0.92781
0.738796 0.874937 0.939208
0.884779 0.873442 0.956115
0.971969 0.893416 0.96965
0.958801 0.804257 0.955932
0.956558 0.788205 0.95349
0.654169 0.958068 0.938094
0.660441 0.958297 0.938643
0.679683 0.959045 0.940368
0.727077 0.961166 0.944915
0.820142 0.966201 0.955276
0.92488 0.973953 0.968612
0.975647 0.979522 0.978439
0.986618 0.962768 0.976272
0.986053 0.958068 0.977798
0.771069 0.979187 0.948745
0.773388 0.979339 0.948959
0.780438 0.979751 0.949599
0.802396 0.981109 0.951644
0.85185 0.984451 0.956527
0.92903 0.990585 0.965393
0.983001 0.99617 0.975158
1 1 0.978714
1 1 0.98471
0.85243 0.984497 0.960021
0.853483 0.984573 0.960113
0.856718 0.984817 0.960372
0.867445 0.985626 0.961288
0.898543 0.988037 0.964126
0.94847 0.992203 0.97023
0.985183 0.996765 0.978408
1 1 0.983383
1 1 0.984344
0 0.803571 0.897795
0 0.796338 0.897566
0 0.754391 0.886564
0 0.677012 0.867002
0.762646 0.477745 0.902312
0.924346 0.380041 0.916182
0.932494 0.592859 0.926406
0.964782 0.844343 0.96231
0.961257 0.820615 0.958526
0 0.806348 0.897856
0 0.793469 0.897383
0 0.755245 0.886885
0 0.678462 0.867079
0.760998 0.488334 0.902983
0.924483 0.393957 0.916396
0.932876 0.596735 0.926863
0.964874 0.844953 0.962417
0.961364 0.821271 0.958648
0 0.806195 0.897902
0 0.786587 0.896681
0 0.758648 0.888182
0 0.683085 0.867231
0.757321 0.518135 0.905394
0.92488 0.434287 0.917067
0.934127 0.608454 0.928328
0.965148 0.846769 0.962707
0.961669 0.823301 0.958984
0 0.790799 0.897383
0 0.784451 0.896437
0 0.770626 0.89276
0 0.695506 0.870207
0.751644 0.597253 0.913252
0.927275 0.531563 0.920745
0.938094 0.644633 0.932845
0.966018 0.852293 0.963653
0.962661 0.829999 0.960052
0 0.785504 0.897276
0 0.780423 0.896391
0 0.768948 0.893477
0.223697 0.75874 0.906111
0.75903 0.738476 0.929122
0.932128 0.696132 0.938857
0.948959 0.731579 0.945037
0.968673 0.869032 0.966628
0.965774 0.850401 0.963424
0.544823 0.86807 0.931411
0.558877 0.868345 0.93196
0.596262 0.86923 0.933654
0.673854 0.87332 0.939101
0.792355 0.880034 0.947326
0.910567 0.864576 0.959228
0.967605 0.863874 0.965698
0.975677 0.908827 0.974182
0.973129 0.894774 0.971389
0.7897 0.950347 0.965743
0.791913 0.950469 0.965911
0.798703 0.950805 0.9664
0.820035 0.951843 0.967971
0.863493 0.953292 0.971572
0.917845 0.956268 0.976242
0.961624 0.955093 0.981353
0.987518 0.961822 0.986847
0.985382 0.953628 0.984543
0.903014 0.987472 0.982773
0.903365 0.987503 0.982818
0.904433 0.98761 0.982956
0.907942 0.9879 0.983322
0.918654 0.988876 0.984543
0.944747 0.991165 0.987854
0.974502 0.994644 0.992721
0.997177 0.997086 0.998108
0.997086 0.996048 0.998367
0.927993 0.990143 0.984878
0.928267 0.990173 0.984894
0.929107 0.99028 0.985016
0.931685 0.990555 0.985351
0.938186 0.991287 0.986252
0.954986 0.993286 0.988647
0.976989 0.996704 0.992813
0.997101 1 0.999115
0.998306 1 0.999481
0 0.889494 0.923506
0 0.879698 0.920668
0 0.789532 0.897459
0 0.738842 0.880385
0.726833 0.54902 0.906432
0.924575 0.40911 0.916609
0.931273 0.578958 0.925048
0.967758 0.863279 0.965637
0.970687 0.881285 0.968826
0 0.89247 0.924315
0 0.871443 0.918059
0 0.789395 0.897459
0 0.738979 0.8804
0.72668 0.557015 0.907225
0.924697 0.422354 0.916808
0.93167 0.583474 0.925475
0.967834 0.863737 0.965728
0.970764 0.881621 0.968902
0 0.891081 0.923919
0 0.841749 0.907698
0 0.789837 0.897536
0 0.738506 0.880079
0.726726 0.579065 0.909422
0.925124 0.457511 0.917525
0.932937 0.596445 0.926909
0.968063 0.865156 0.965972
0.970947 0.882658 0.969085
0 0.835081 0.905333
0 0.812619 0.898116
0 0.794766 0.89807
0 0.740353 0.880842
0.72958 0.639963 0.915999
0.92842 0.548501 0.921935
0.937026 0.635203 0.931655
0.96878 0.869825 0.966781
0.971511 0.886061 0.969696
0 0.816266 0.89897
0 0.807141 0.898543
0 0.788708 0.897581
0.0419776 0.781521 0.915419
0.749844 0.756024 0.927489
0.93846 0.705348 0.940566
0.948333 0.726864 0.944335
0.971054 0.883146 0.969192
0.973404 0.89659 0.971679
0.518273 0.872023 0.931655
0.534768 0.872282 0.932235
0.58024 0.873075 0.934096
0.673426 0.877272 0.9402
0.803235 0.884199 0.949172
0.92015 0.867842 0.960388
0.967712 0.863233 0.965591
0.976974 0.91519 0.975555
0.978454 0.92253 0.97705
0.834714 0.95346 0.969436
0.836164 0.953521 0.969558
0.840528 0.953658 0.969924
0.854765 0.95404 0.971115
0.888548 0.95491 0.974151
0.93109 0.958083 0.977707
0.967422 0.9552 0.982193
0.987182 0.960525 0.986496
0.987884 0.962966 0.987228
0.923156 0.988388 0.98703
0.9234 0.988388 0.987045
0.924147 0.988449 0.987121
0.92665 0.988678 0.987427
0.934813 0.989319 0.988357
0.954055 0.990829 0.990692
0.974884 0.992828 0.99411
0.994461 0.994812 0.997879
0.997162 0.995819 0.999039
0.945617 0.991684 0.989273
0.945724 0.991684 0.989273
0.94609 0.991745 0.989334
0.947311 0.991913 0.989517
0.951202 0.992447 0.990112
0.962844 0.993988 0.991928
0.98088 0.996994 0.995514
0.998276 0.998871 1
0.999481 0.99942 1
